; generated by PrusaSlicer 2.5.1 on 2023-04-03 at 21:39:16 UTC

; 

; external perimeters extrusion width = 0.42mm
; perimeters extrusion width = 0.44mm
; infill extrusion width = 0.44mm
; solid infill extrusion width = 0.44mm
; top infill extrusion width = 0.40mm
; first layer extrusion width = 0.42mm

M107
;TYPE:Custom
G90 ; use absolute coordinates
M83 ; extruder relative mode
M140 S60 ; set final bed temp
M104 S150 ; set temporary nozzle temp to prevent oozing during homing and auto bed leveling
M190 S60 ; wait for bed temp to stabilize
G28 ; home all axis
G29 ; auto bed levelling
G1 Z50 F240
G1 X2 Y10 F3000
M104 S210 ; set final nozzle temp
M109 S210 ; wait for nozzle temp to stabilize
G1 Z0.28 F240
G92 E0
G1 Y140 E10 F1500 ; prime the nozzle
G1 X2.3 F5000
G92 E0
G1 Y10 E10 F1200 ; prime the nozzle
G92 E0
G21 ; set units to millimeters
G90 ; use absolute coordinates
M83 ; use relative distances for extrusion
; Filament gcode
M107
;LAYER_CHANGE
;Z:0.2
;HEIGHT:0.2
;BEFORE_LAYER_CHANGE
G92 E0
;0.2


G1 E-6 F3600
G1 Z.2 F9000
;AFTER_LAYER_CHANGE
;0.2
G1 X148.107 Y158.203
G1 E6 F2400
M204 S500
;TYPE:Skirt/Brim
;WIDTH:0.42
G1 F1200
G1 X150 Y157.623 E.06207
G1 X210 Y157.623 E1.88126
G1 X211.583 Y158.017 E.05115
G1 X212.797 Y159.107 E.05115
G1 X213.377 Y161 E.06207
G1 X213.377 Y199 E1.19146
G1 X212.983 Y200.583 E.05115
G1 X211.893 Y201.797 E.05115
G1 X210 Y202.377 E.06207
G1 X150 Y202.377 E1.88126
G1 X148.417 Y201.983 E.05115
G1 X147.203 Y200.893 E.05115
G1 X146.623 Y199 E.06207
G1 X146.623 Y161 E1.19146
G1 X147.017 Y159.417 E.05115
G1 X148.067 Y158.248 E.04927
G1 E-4.2 F3600
;WIPE_START
G1 F7200
G1 X150 Y157.623 E-.96489
G1 X151.569 Y157.623 E-.74511
;WIPE_END
G1 E-.09 F3600
G1 X151.064 Y162.064 F9000
G1 E6 F2400
;TYPE:Perimeter
;WIDTH:0.419999
G1 F1200
G1 X208.936 Y162.064 E1.81452
G1 X208.936 Y197.936 E1.12473
G1 X151.064 Y197.936 E1.81452
G1 X151.064 Y162.124 E1.12285
G1 X150.687 Y161.687 F9000
G1 F1200
G1 X209.313 Y161.687 E1.83817
G1 X209.313 Y198.313 E1.14838
G1 X150.687 Y198.313 E1.83817
G1 X150.687 Y161.747 E1.14649
G1 X150.31 Y161.31 F9000
;TYPE:External perimeter
G1 F1200
G1 X209.69 Y161.31 E1.86182
G1 X209.69 Y198.69 E1.17202
G1 X150.31 Y198.69 E1.86182
G1 X150.31 Y161.37 E1.17014
G1 X150.703 Y161.384 F9000
G1 E-4.2 F3600
;WIPE_START
G1 F7200
G1 X153.91 Y161.366 E-1.71
;WIPE_END
G1 E-.09 F3600
G1 X208.815 Y162.947 F9000
G1 E6 F2400
;TYPE:Solid infill
;WIDTH:0.420055
G1 F1200
G1 X208.222 Y162.354 E.02629
G1 X207.689 Y162.354 E.01673
G1 X208.646 Y163.311 E.04241
G1 X208.646 Y163.844 E.01673
G1 X207.156 Y162.354 E.06607
G1 X206.622 Y162.354 E.01673
G1 X208.646 Y164.378 E.08972
G1 X208.646 Y164.911 E.01673
G1 X206.089 Y162.354 E.11337
G1 X205.556 Y162.354 E.01673
G1 X208.646 Y165.444 E.13703
G1 X208.646 Y165.978 E.01673
G1 X205.022 Y162.354 E.16068
G1 X204.489 Y162.354 E.01673
G1 X208.646 Y166.511 E.18433
G1 X208.646 Y167.044 E.01673
G1 X203.956 Y162.354 E.20798
G1 X203.422 Y162.354 E.01673
G1 X208.646 Y167.578 E.23164
G1 X208.646 Y168.111 E.01673
G1 X202.889 Y162.354 E.25529
G1 X202.356 Y162.354 E.01673
G1 X208.646 Y168.644 E.27894
G1 X208.646 Y169.178 E.01673
G1 X201.822 Y162.354 E.3026
G1 X201.289 Y162.354 E.01673
G1 X208.646 Y169.711 E.32625
G1 X208.646 Y170.244 E.01673
G1 X200.756 Y162.354 E.3499
G1 X200.222 Y162.354 E.01673
G1 X208.646 Y170.778 E.37356
G1 X208.646 Y171.311 E.01673
G1 X199.689 Y162.354 E.39721
G1 X199.156 Y162.354 E.01673
G1 X208.646 Y171.844 E.42086
G1 X208.646 Y172.378 E.01673
G1 X198.622 Y162.354 E.44452
G1 X198.089 Y162.354 E.01673
G1 X208.646 Y172.911 E.46817
G1 X208.646 Y173.445 E.01673
G1 X197.555 Y162.354 E.49182
G1 X197.022 Y162.354 E.01673
G1 X208.646 Y173.978 E.51547
G1 X208.646 Y174.511 E.01673
G1 X196.489 Y162.354 E.53913
G1 X195.955 Y162.354 E.01673
G1 X208.646 Y175.045 E.56278
G1 X208.646 Y175.578 E.01673
G1 X195.422 Y162.354 E.58643
G1 X194.889 Y162.354 E.01673
G1 X208.646 Y176.111 E.61009
G1 X208.646 Y176.645 E.01673
G1 X194.355 Y162.354 E.63374
G1 X193.822 Y162.354 E.01673
G1 X208.646 Y177.178 E.65739
G1 X208.646 Y177.711 E.01673
G1 X193.289 Y162.354 E.68105
G1 X192.755 Y162.354 E.01673
G1 X208.646 Y178.245 E.7047
G1 X208.646 Y178.778 E.01673
G1 X192.222 Y162.354 E.72835
G1 X191.689 Y162.354 E.01673
G1 X208.646 Y179.311 E.75201
G1 X208.646 Y179.845 E.01673
G1 X191.155 Y162.354 E.77566
G1 X190.622 Y162.354 E.01673
G1 X208.646 Y180.378 E.79931
G1 X208.646 Y180.911 E.01673
G1 X190.089 Y162.354 E.82296
G1 X189.555 Y162.354 E.01673
G1 X208.646 Y181.445 E.84662
G1 X208.646 Y181.978 E.01673
G1 X189.022 Y162.354 E.87027
G1 X188.489 Y162.354 E.01673
G1 X208.646 Y182.511 E.89392
G1 X208.646 Y183.045 E.01673
G1 X187.955 Y162.354 E.91758
G1 X187.422 Y162.354 E.01673
G1 X208.646 Y183.578 E.94123
G1 X208.646 Y184.111 E.01673
G1 X186.889 Y162.354 E.96488
G1 X186.355 Y162.354 E.01673
G1 X208.646 Y184.645 E.98854
G1 X208.646 Y185.178 E.01673
G1 X185.822 Y162.354 E1.01219
G1 X185.288 Y162.354 E.01673
G1 X208.646 Y185.712 E1.03584
G1 X208.646 Y186.245 E.01673
G1 X184.755 Y162.354 E1.0595
G1 X184.222 Y162.354 E.01673
G1 X208.646 Y186.778 E1.08315
G1 X208.646 Y187.312 E.01673
G1 X183.688 Y162.354 E1.1068
G1 X183.155 Y162.354 E.01673
G1 X208.646 Y187.845 E1.13045
G1 X208.646 Y188.378 E.01673
G1 X182.622 Y162.354 E1.15411
G1 X182.088 Y162.354 E.01673
G1 X208.646 Y188.912 E1.17776
G1 X208.646 Y189.445 E.01673
G1 X181.555 Y162.354 E1.20141
G1 X181.022 Y162.354 E.01673
G1 X208.646 Y189.978 E1.22507
G1 X208.646 Y190.512 E.01673
G1 X180.488 Y162.354 E1.24872
G1 X179.955 Y162.354 E.01673
G1 X208.646 Y191.045 E1.27237
G1 X208.646 Y191.578 E.01673
G1 X179.422 Y162.354 E1.29603
G1 X178.888 Y162.354 E.01673
G1 X208.646 Y192.112 E1.31968
G1 X208.646 Y192.645 E.01673
G1 X178.355 Y162.354 E1.34333
G1 X177.822 Y162.354 E.01673
G1 X208.646 Y193.178 E1.36699
G1 X208.646 Y193.712 E.01673
G1 X177.288 Y162.354 E1.39064
G1 X176.755 Y162.354 E.01673
G1 X208.646 Y194.245 E1.41429
G1 X208.646 Y194.778 E.01673
G1 X176.222 Y162.354 E1.43794
G1 X175.688 Y162.354 E.01673
G1 X208.646 Y195.312 E1.4616
G1 X208.646 Y195.845 E.01673
G1 X175.155 Y162.354 E1.48525
G1 X174.621 Y162.354 E.01673
G1 X208.646 Y196.379 E1.5089
G1 X208.646 Y196.912 E.01673
G1 X174.088 Y162.354 E1.53256
G1 X173.555 Y162.354 E.01673
G1 X208.646 Y197.445 E1.55621
G1 X208.646 Y197.646 E.00628
G1 X208.312 Y197.646 E.01044
G1 X173.021 Y162.354 E1.56509
G1 X172.488 Y162.354 E.01673
G1 X207.779 Y197.646 E1.56509
G1 X207.246 Y197.646 E.01673
G1 X171.955 Y162.354 E1.56509
G1 X171.421 Y162.354 E.01673
G1 X206.712 Y197.646 E1.56509
G1 X206.179 Y197.646 E.01673
G1 X170.888 Y162.354 E1.56509
G1 X170.355 Y162.354 E.01673
G1 X205.646 Y197.646 E1.56509
G1 X205.112 Y197.646 E.01673
G1 X169.821 Y162.354 E1.56509
G1 X169.288 Y162.354 E.01673
G1 X204.579 Y197.646 E1.56509
G1 X204.046 Y197.646 E.01673
G1 X168.755 Y162.354 E1.56509
G1 X168.221 Y162.354 E.01673
G1 X203.512 Y197.646 E1.56509
G1 X202.979 Y197.646 E.01673
G1 X167.688 Y162.354 E1.56509
G1 X167.155 Y162.354 E.01673
G1 X202.446 Y197.646 E1.56509
G1 X201.912 Y197.646 E.01673
G1 X166.621 Y162.354 E1.56509
G1 X166.088 Y162.354 E.01673
G1 X201.379 Y197.646 E1.56509
G1 X200.846 Y197.646 E.01673
G1 X165.555 Y162.354 E1.56509
G1 X165.021 Y162.354 E.01673
G1 X200.312 Y197.646 E1.56509
G1 X199.779 Y197.646 E.01673
G1 X164.488 Y162.354 E1.56509
G1 X163.954 Y162.354 E.01673
G1 X199.245 Y197.646 E1.56509
G1 X198.712 Y197.646 E.01673
G1 X163.421 Y162.354 E1.56509
G1 X162.888 Y162.354 E.01673
G1 X198.179 Y197.646 E1.56509
G1 X197.645 Y197.646 E.01673
G1 X162.354 Y162.354 E1.56509
G1 X161.821 Y162.354 E.01673
G1 X197.112 Y197.646 E1.56509
G1 X196.579 Y197.646 E.01673
G1 X161.288 Y162.354 E1.56509
G1 X160.754 Y162.354 E.01673
G1 X196.045 Y197.646 E1.56509
G1 X195.512 Y197.646 E.01673
G1 X160.221 Y162.354 E1.56509
G1 X159.688 Y162.354 E.01673
G1 X194.979 Y197.646 E1.56509
G1 X194.445 Y197.646 E.01673
G1 X159.154 Y162.354 E1.56509
G1 X158.621 Y162.354 E.01673
G1 X193.912 Y197.646 E1.56509
G1 X193.379 Y197.646 E.01673
G1 X158.088 Y162.354 E1.56509
G1 X157.554 Y162.354 E.01673
G1 X192.845 Y197.646 E1.56509
G1 X192.312 Y197.646 E.01673
G1 X157.021 Y162.354 E1.56509
G1 X156.488 Y162.354 E.01673
G1 X191.779 Y197.646 E1.56509
G1 X191.245 Y197.646 E.01673
G1 X155.954 Y162.354 E1.56509
G1 X155.421 Y162.354 E.01673
G1 X190.712 Y197.646 E1.56509
G1 X190.179 Y197.646 E.01673
G1 X154.888 Y162.354 E1.56509
G1 X154.354 Y162.354 E.01673
G1 X189.645 Y197.646 E1.56509
G1 X189.112 Y197.646 E.01673
G1 X153.821 Y162.354 E1.56509
G1 X153.287 Y162.354 E.01673
G1 X188.579 Y197.646 E1.56509
G1 X188.045 Y197.646 E.01673
G1 X152.754 Y162.354 E1.56509
G1 X152.221 Y162.354 E.01673
G1 X187.512 Y197.646 E1.56509
G1 X186.978 Y197.646 E.01673
G1 X151.687 Y162.354 E1.56509
G1 X151.354 Y162.354 E.01044
G1 X151.354 Y162.555 E.00628
G1 X186.445 Y197.646 E1.5562
G1 X185.912 Y197.646 E.01673
G1 X151.354 Y163.088 E1.53255
G1 X151.354 Y163.622 E.01673
G1 X185.378 Y197.646 E1.5089
G1 X184.845 Y197.646 E.01673
G1 X151.354 Y164.155 E1.48525
G1 X151.354 Y164.688 E.01673
G1 X184.312 Y197.646 E1.46159
G1 X183.778 Y197.646 E.01673
G1 X151.354 Y165.222 E1.43794
G1 X151.354 Y165.755 E.01673
G1 X183.245 Y197.646 E1.41429
G1 X182.712 Y197.646 E.01673
G1 X151.354 Y166.288 E1.39063
G1 X151.354 Y166.822 E.01673
G1 X182.178 Y197.646 E1.36698
G1 X181.645 Y197.646 E.01673
G1 X151.354 Y167.355 E1.34333
G1 X151.354 Y167.888 E.01673
G1 X181.112 Y197.646 E1.31967
G1 X180.578 Y197.646 E.01673
G1 X151.354 Y168.422 E1.29602
G1 X151.354 Y168.955 E.01673
G1 X180.045 Y197.646 E1.27237
G1 X179.512 Y197.646 E.01673
G1 X151.354 Y169.488 E1.24871
G1 X151.354 Y170.022 E.01673
G1 X178.978 Y197.646 E1.22506
G1 X178.445 Y197.646 E.01673
G1 X151.354 Y170.555 E1.20141
G1 X151.354 Y171.088 E.01673
G1 X177.912 Y197.646 E1.17776
G1 X177.378 Y197.646 E.01673
G1 X151.354 Y171.622 E1.1541
G1 X151.354 Y172.155 E.01673
G1 X176.845 Y197.646 E1.13045
G1 X176.311 Y197.646 E.01673
G1 X151.354 Y172.689 E1.1068
G1 X151.354 Y173.222 E.01673
G1 X175.778 Y197.646 E1.08314
G1 X175.245 Y197.646 E.01673
G1 X151.354 Y173.755 E1.05949
G1 X151.354 Y174.289 E.01673
G1 X174.711 Y197.646 E1.03584
G1 X174.178 Y197.646 E.01673
G1 X151.354 Y174.822 E1.01218
G1 X151.354 Y175.355 E.01673
G1 X173.645 Y197.646 E.98853
G1 X173.111 Y197.646 E.01673
G1 X151.354 Y175.889 E.96488
G1 X151.354 Y176.422 E.01673
G1 X172.578 Y197.646 E.94122
G1 X172.045 Y197.646 E.01673
G1 X151.354 Y176.955 E.91757
G1 X151.354 Y177.489 E.01673
G1 X171.511 Y197.646 E.89392
G1 X170.978 Y197.646 E.01673
G1 X151.354 Y178.022 E.87027
G1 X151.354 Y178.555 E.01673
G1 X170.445 Y197.646 E.84661
G1 X169.911 Y197.646 E.01673
G1 X151.354 Y179.089 E.82296
G1 X151.354 Y179.622 E.01673
G1 X169.378 Y197.646 E.79931
G1 X168.845 Y197.646 E.01673
G1 X151.354 Y180.155 E.77565
G1 X151.354 Y180.689 E.01673
G1 X168.311 Y197.646 E.752
G1 X167.778 Y197.646 E.01673
G1 X151.354 Y181.222 E.72835
G1 X151.354 Y181.755 E.01673
G1 X167.245 Y197.646 E.70469
G1 X166.711 Y197.646 E.01673
G1 X151.354 Y182.289 E.68104
G1 X151.354 Y182.822 E.01673
G1 X166.178 Y197.646 E.65739
G1 X165.644 Y197.646 E.01673
G1 X151.354 Y183.356 E.63373
G1 X151.354 Y183.889 E.01673
G1 X165.111 Y197.646 E.61008
G1 X164.578 Y197.646 E.01673
G1 X151.354 Y184.422 E.58643
G1 X151.354 Y184.956 E.01673
G1 X164.044 Y197.646 E.56278
G1 X163.511 Y197.646 E.01673
G1 X151.354 Y185.489 E.53912
G1 X151.354 Y186.022 E.01673
G1 X162.978 Y197.646 E.51547
G1 X162.444 Y197.646 E.01673
G1 X151.354 Y186.556 E.49182
G1 X151.354 Y187.089 E.01673
G1 X161.911 Y197.646 E.46816
G1 X161.378 Y197.646 E.01673
G1 X151.354 Y187.622 E.44451
G1 X151.354 Y188.156 E.01673
G1 X160.844 Y197.646 E.42086
G1 X160.311 Y197.646 E.01673
G1 X151.354 Y188.689 E.3972
G1 X151.354 Y189.222 E.01673
G1 X159.778 Y197.646 E.37355
G1 X159.244 Y197.646 E.01673
G1 X151.354 Y189.756 E.3499
G1 X151.354 Y190.289 E.01673
G1 X158.711 Y197.646 E.32624
G1 X158.178 Y197.646 E.01673
G1 X151.354 Y190.822 E.30259
G1 X151.354 Y191.356 E.01673
G1 X157.644 Y197.646 E.27894
G1 X157.111 Y197.646 E.01673
G1 X151.354 Y191.889 E.25529
G1 X151.354 Y192.422 E.01673
G1 X156.578 Y197.646 E.23163
G1 X156.044 Y197.646 E.01673
G1 X151.354 Y192.956 E.20798
G1 X151.354 Y193.489 E.01673
G1 X155.511 Y197.646 E.18433
G1 X154.977 Y197.646 E.01673
G1 X151.354 Y194.023 E.16067
G1 X151.354 Y194.556 E.01673
G1 X154.444 Y197.646 E.13702
G1 X153.911 Y197.646 E.01673
G1 X151.354 Y195.089 E.11337
G1 X151.354 Y195.623 E.01673
G1 X153.377 Y197.646 E.08971
G1 X152.844 Y197.646 E.01673
G1 X151.354 Y196.156 E.06606
G1 X151.354 Y196.689 E.01673
G1 X152.311 Y197.646 E.04241
G1 X151.777 Y197.646 E.01673
G1 X151.185 Y197.053 E.02628
M106 S255
;LAYER_CHANGE
;Z:0.28
;HEIGHT:0.08
;BEFORE_LAYER_CHANGE
G92 E0
;0.28


G1 E-4.2 F3600
;WIPE_START
G1 F7200
G1 X151.777 Y197.646 E-.39807
G1 X152.311 Y197.646 E-.25334
G1 X151.354 Y196.689 E-.64236
G1 X151.354 Y196.156 E-.25334
G1 X151.597 Y196.398 E-.16289
;WIPE_END
G1 E-.09 F3600
G1 Z.28 F9000
;AFTER_LAYER_CHANGE
;0.28
M104 S205 ; set temperature
G1 X146.623 Y196.398
G1 E6 F2400
;TYPE:Skirt/Brim
;WIDTH:0.42
G1 X146.623 Y161 E.47428
G1 X147.017 Y159.417 E.02186
G1 X148.107 Y158.203 E.02186
G1 X150 Y157.623 E.02652
G1 X210 Y157.623 E.80389
G1 X211.583 Y158.017 E.02186
G1 X212.797 Y159.107 E.02186
G1 X213.377 Y161 E.02652
G1 X213.377 Y199 E.50913
G1 X212.983 Y200.583 E.02186
G1 X211.893 Y201.797 E.02186
G1 X210 Y202.377 E.02652
G1 X150 Y202.377 E.80389
G1 X148.417 Y201.983 E.02186
G1 X147.203 Y200.893 E.02186
G1 X146.623 Y199 E.02652
G1 X146.623 Y196.458 E.03405
G1 E-4.2 F3600
;WIPE_START
G1 F7200
G1 X146.623 Y192.858 E-1.71
;WIPE_END
G1 E-.09 F3600
G1 X151.046 Y197.954 F9000
G1 E6 F2400
;TYPE:Perimeter
;WIDTH:0.439999
G1 X151.046 Y162.046 E.505
G1 X208.954 Y162.046 E.81439
G1 X208.954 Y197.954 E.505
G1 X151.106 Y197.954 E.81355
G1 X150.623 Y198.377 F9000
G1 F2400
G1 X150.623 Y161.623 E.51689
G1 X209.377 Y161.623 E.82629
G1 X209.377 Y198.377 E.51689
G1 X150.683 Y198.377 E.82544
G1 X150.21 Y198.79 F9000
;TYPE:External perimeter
;WIDTH:0.419999
G1 F1500
G1 X150.21 Y161.21 E.5035
G1 X209.79 Y161.21 E.79827
G1 X209.79 Y198.79 E.5035
G1 X150.27 Y198.79 E.79746
G1 X150.342 Y198.412 F9000
G1 E-4.2 F3600
;WIPE_START
G1 F7200
G1 X150.264 Y195.19 E-1.71
;WIPE_END
G1 E-.09 F3600
G1 X207.964 Y197.819 F9000
G1 E6 F2400
;TYPE:Solid infill
;WIDTH:0.440347
G1 X208.629 Y197.154 E.01324
G1 X208.629 Y196.555 E.00842
G1 X207.555 Y197.629 E.02137
G1 X206.957 Y197.629 E.00842
G1 X208.629 Y195.957 E.03328
G1 X208.629 Y195.358 E.00842
G1 X206.358 Y197.629 E.04519
G1 X205.76 Y197.629 E.00842
G1 X208.629 Y194.76 E.0571
G1 X208.629 Y194.161 E.00842
G1 X205.161 Y197.629 E.06902
G1 X204.563 Y197.629 E.00842
G1 X208.629 Y193.563 E.08093
G1 X208.629 Y192.965 E.00842
G1 X203.965 Y197.629 E.09284
G1 X203.366 Y197.629 E.00842
G1 X208.629 Y192.366 E.10475
G1 X208.629 Y191.768 E.00842
G1 X202.768 Y197.629 E.11667
G1 X202.169 Y197.629 E.00842
G1 X208.629 Y191.169 E.12858
G1 X208.629 Y190.571 E.00842
G1 X201.571 Y197.629 E.14049
G1 X200.972 Y197.629 E.00842
G1 X208.629 Y189.972 E.1524
G1 X208.629 Y189.374 E.00842
G1 X200.374 Y197.629 E.16432
G1 X199.775 Y197.629 E.00842
G1 X208.629 Y188.775 E.17623
G1 X208.629 Y188.177 E.00842
G1 X199.177 Y197.629 E.18814
G1 X198.578 Y197.629 E.00842
G1 X208.629 Y187.578 E.20005
G1 X208.629 Y186.98 E.00842
G1 X197.98 Y197.629 E.21197
G1 X197.381 Y197.629 E.00842
G1 X208.629 Y186.381 E.22388
G1 X208.629 Y185.783 E.00842
G1 X196.783 Y197.629 E.23579
G1 X196.185 Y197.629 E.00842
G1 X208.629 Y185.185 E.2477
G1 X208.629 Y184.586 E.00842
G1 X195.586 Y197.629 E.25962
G1 X194.988 Y197.629 E.00842
G1 X208.629 Y183.988 E.27153
G1 X208.629 Y183.389 E.00842
G1 X194.389 Y197.629 E.28344
G1 X193.791 Y197.629 E.00842
G1 X208.629 Y182.791 E.29535
G1 X208.629 Y182.192 E.00842
G1 X193.192 Y197.629 E.30727
G1 X192.594 Y197.629 E.00842
G1 X208.629 Y181.594 E.31918
G1 X208.629 Y180.995 E.00842
G1 X191.995 Y197.629 E.33109
G1 X191.397 Y197.629 E.00842
G1 X208.629 Y180.397 E.343
G1 X208.629 Y179.798 E.00842
G1 X190.798 Y197.629 E.35492
G1 X190.2 Y197.629 E.00842
G1 X208.629 Y179.2 E.36683
