;FLAVOR:Marlin
;TIME:3793
;Filament used: 3.02609m
;Layer height: 0.2
;MINX:126.519
;MINY:138.097
;MINZ:0.2
;MAXX:192.119
;MAXY:190.697
;MAXZ:28.4
;Generated with Cura_SteamEngine 5.3.0
M140 S60
M105
M190 S60
M104 S200
M105
M109 S200
M82 ;absolute extrusion mode
M201 X500.00 Y500.00 Z100.00 E5000.00 ;Setup machine max acceleration
M203 X500.00 Y500.00 Z10.00 E50.00 ;Setup machine max feedrate
M204 P500.00 R1000.00 T500.00 ;Setup Print/Retract/Travel acceleration
M205 X8.00 Y8.00 Z0.40 E5.00 ;Setup Jerk
M220 S100 ;Reset Feedrate
M221 S100 ;Reset Flowrate

G28 ;Home
M420 S1 Z2 ;Enable ABL using saved Mesh and Fade Height

G92 E0 ;Reset Extruder
G1 Z2.0 F3000 ;Move Z Axis up
G1 X10.1 Y20 Z0.28 F5000.0 ;Move to start position
G1 X10.1 Y200.0 Z0.28 F1500.0 E15 ;Draw the first line
G1 X10.4 Y200.0 Z0.28 F5000.0 ;Move to side a little
G1 X10.4 Y20 Z0.28 F1500.0 E30 ;Draw the second line
G92 E0 ;Reset Extruder
G1 Z2.0 F3000 ;Move Z Axis up

G92 E0
G92 E0
G1 F1500 E-6.5
;LAYER_COUNT:143
;LAYER:0
M107
G0 F6000 X129.613 Y139.647 Z0.2
;TYPE:SKIRT
G1 F1500 E0
G1 F1200 X131.485 Y138.535 E0.07242
G1 X133.672 Y138.097 E0.1466
G1 X185.172 Y138.097 E1.8595
G1 X187.068 Y138.563 E1.92444
G1 X189.095 Y139.616 E2.00041
G1 X190.569 Y141.191 E2.07216
G1 X191.681 Y143.063 E2.14458
G1 X192.119 Y145.25 E2.21876
G1 X192.119 Y183.75 E3.49928
G1 X191.653 Y185.646 E3.56422
G1 X190.6 Y187.673 E3.64019
G1 X189.025 Y189.147 E3.71194
G1 X187.153 Y190.259 E3.78435
G1 X184.966 Y190.697 E3.85854
G1 X133.466 Y190.697 E5.57144
G1 X131.57 Y190.231 E5.63637
G1 X129.543 Y189.178 E5.71235
G1 X128.069 Y187.603 E5.78409
G1 X126.957 Y185.731 E5.85651
G1 X126.519 Y183.544 E5.9307
G1 X126.519 Y145.044 E7.21121
G1 X126.985 Y143.148 E7.27615
G1 X128.038 Y141.121 E7.35212
G1 X129.613 Y139.647 E7.42387
G0 F6000 X129.854 Y139.969
G1 F1200 X131.631 Y138.913 E7.49262
G1 X133.71 Y138.497 E7.56314
G1 X185.126 Y138.497 E9.27324
G1 X186.925 Y138.939 E9.33486
G1 X188.85 Y139.939 E9.40701
G1 X190.247 Y141.432 E9.47501
G1 X191.303 Y143.209 E9.54377
G1 X191.719 Y145.288 E9.61428
G1 X191.719 Y183.704 E10.89201
G1 X191.277 Y185.503 E10.95362
G1 X190.277 Y187.428 E11.02577
G1 X188.784 Y188.825 E11.09378
G1 X187.007 Y189.881 E11.16253
G1 X184.928 Y190.297 E11.23305
G1 X133.512 Y190.297 E12.94315
G1 X131.713 Y189.855 E13.00476
G1 X129.788 Y188.855 E13.07691
G1 X128.391 Y187.362 E13.14492
G1 X127.335 Y185.585 E13.21367
G1 X126.919 Y183.506 E13.28419
G1 X126.919 Y145.09 E14.56191
G1 X127.361 Y143.291 E14.62352
G1 X128.361 Y141.366 E14.69567
G1 X129.854 Y139.969 E14.76368
G0 F6000 X130.095 Y140.291
G1 F1200 X131.777 Y139.292 E14.82875
G1 X133.749 Y138.897 E14.89564
G1 X185.079 Y138.897 E16.60288
G1 X186.783 Y139.316 E16.66124
G1 X188.605 Y140.262 E16.72953
G1 X189.925 Y141.673 E16.79379
G1 X190.924 Y143.355 E16.85886
G1 X191.319 Y145.327 E16.92575
G1 X191.319 Y183.657 E18.20061
G1 X190.9 Y185.361 E18.25897
G1 X189.954 Y187.183 E18.32726
G1 X188.543 Y188.503 E18.39152
G1 X186.861 Y189.502 E18.45659
G1 X184.889 Y189.897 E18.52348
G1 X133.559 Y189.897 E20.23072
G1 X131.855 Y189.478 E20.28908
G1 X130.033 Y188.532 E20.35737
G1 X128.713 Y187.121 E20.42163
G1 X127.714 Y185.439 E20.4867
G1 X127.319 Y183.467 E20.55359
G1 X127.319 Y145.137 E21.82845
G1 X127.738 Y143.433 E21.88681
G1 X128.684 Y141.611 E21.9551
G1 X130.095 Y140.291 E22.01936
G0 F6000 X130.336 Y140.613
G1 F1200 X131.923 Y139.67 E22.08076
G1 X133.787 Y139.297 E22.14398
G1 X185.033 Y139.297 E23.84843
G1 X186.64 Y139.692 E23.90347
G1 X188.36 Y140.585 E23.96793
G1 X189.603 Y141.914 E24.02846
G1 X190.546 Y143.501 E24.08985
G1 X190.919 Y145.365 E24.15308
G1 X190.919 Y183.611 E25.42515
G1 X190.524 Y185.218 E25.48019
G1 X189.631 Y186.938 E25.54465
G1 X188.302 Y188.181 E25.60517
G1 X186.715 Y189.124 E25.66657
G1 X184.851 Y189.497 E25.72979
G1 X133.605 Y189.497 E27.43424
G1 X131.998 Y189.102 E27.48928
G1 X130.278 Y188.209 E27.55374
G1 X129.035 Y186.88 E27.61426
G1 X128.092 Y185.293 E27.67566
G1 X127.719 Y183.429 E27.73889
G1 X127.719 Y145.183 E29.01096
G1 X128.114 Y143.576 E29.066
G1 X129.007 Y141.856 E29.13045
G1 X130.336 Y140.613 E29.19098
G0 F6000 X130.577 Y140.935
G1 F1200 X132.069 Y140.048 E29.24871
G1 X133.825 Y139.697 E29.30827
G1 X184.987 Y139.697 E31.00992
G1 X186.497 Y140.068 E31.06164
G1 X188.115 Y140.908 E31.12228
G1 X189.281 Y142.155 E31.17906
G1 X190.168 Y143.647 E31.23679
G1 X190.519 Y145.403 E31.29635
G1 X190.519 Y183.565 E32.56562
G1 X190.148 Y185.075 E32.61734
G1 X189.308 Y186.693 E32.67797
G1 X188.061 Y187.859 E32.73476
G1 X186.569 Y188.746 E32.79249
G1 X184.813 Y189.097 E32.85205
G1 X133.651 Y189.097 E34.5537
G1 X132.141 Y188.726 E34.60542
G1 X130.523 Y187.886 E34.66605
G1 X129.357 Y186.639 E34.72284
G1 X128.47 Y185.147 E34.78057
G1 X128.119 Y183.391 E34.84013
G1 X128.119 Y145.229 E36.1094
G1 X128.49 Y143.719 E36.16112
G1 X129.33 Y142.101 E36.22175
G1 X130.577 Y140.935 E36.27853
G0 F6000 X130.818 Y141.257
G1 F1200 X132.215 Y140.426 E36.3326
G1 X133.863 Y140.097 E36.38849
G1 X184.94 Y140.097 E38.08732
G1 X186.355 Y140.445 E38.13579
G1 X187.87 Y141.231 E38.19255
G1 X188.959 Y142.396 E38.24559
G1 X189.79 Y143.793 E38.29966
G1 X190.119 Y145.441 E38.35555
G1 X190.119 Y183.518 E39.622
G1 X189.771 Y184.933 E39.67046
G1 X188.985 Y186.448 E39.72723
G1 X187.82 Y187.537 E39.78027
G1 X186.423 Y188.368 E39.83433
G1 X184.775 Y188.697 E39.89023
G1 X133.698 Y188.697 E41.58906
G1 X132.283 Y188.349 E41.63752
G1 X130.768 Y187.563 E41.69429
G1 X129.679 Y186.398 E41.74733
G1 X128.848 Y185.001 E41.80139
G1 X128.519 Y183.353 E41.85729
G1 X128.519 Y145.276 E43.12373
G1 X128.867 Y143.861 E43.1722
G1 X129.653 Y142.346 E43.22897
G1 X130.818 Y141.257 E43.28201
G0 F6000 X131.057 Y141.581
G1 F1200 X132.363 Y140.804 E43.33255
G1 X133.901 Y140.497 E43.38471
G1 X184.894 Y140.497 E45.08075
G1 X186.212 Y140.821 E45.12589
G1 X187.625 Y141.554 E45.17883
G1 X188.635 Y142.635 E45.22804
G1 X189.412 Y143.941 E45.27858
G1 X189.719 Y145.479 E45.33075
G1 X189.719 Y183.472 E46.5944
G1 X189.395 Y184.79 E46.63954
G1 X188.662 Y186.203 E46.69248
G1 X187.581 Y187.213 E46.74169
G1 X186.275 Y187.99 E46.79223
G1 X184.737 Y188.297 E46.8444
G1 X133.744 Y188.297 E48.54043
G1 X132.426 Y187.973 E48.58557
G1 X131.013 Y187.24 E48.63852
G1 X130.003 Y186.159 E48.68772
G1 X129.226 Y184.853 E48.73827
G1 X128.919 Y183.315 E48.79043
G1 X128.919 Y145.322 E50.05408
G1 X129.243 Y144.004 E50.09922
G1 X129.976 Y142.591 E50.15217
G1 X131.057 Y141.581 E50.20137
G0 F6000 X131.296 Y141.905
G1 F1200 X132.511 Y141.182 E50.2484
G1 X133.939 Y140.897 E50.29683
G1 X184.848 Y140.897 E51.99007
G1 X186.069 Y141.197 E52.03189
G1 X187.38 Y141.877 E52.08101
G1 X188.311 Y142.874 E52.12638
G1 X189.034 Y144.089 E52.1734
G1 X189.319 Y145.517 E52.22184
G1 X189.319 Y183.426 E53.4827
G1 X189.019 Y184.647 E53.52451
G1 X188.339 Y185.958 E53.57363
G1 X187.342 Y186.889 E53.619
G1 X186.127 Y187.612 E53.66603
G1 X184.699 Y187.897 E53.71446
G1 X133.79 Y187.897 E55.4077
G1 X132.569 Y187.597 E55.44952
G1 X131.258 Y186.917 E55.49864
G1 X130.327 Y185.92 E55.54401
G1 X129.604 Y184.705 E55.59104
G1 X129.319 Y183.277 E55.63947
G1 X129.319 Y145.368 E56.90033
G1 X129.619 Y144.147 E56.94214
G1 X130.299 Y142.836 E56.99127
G1 X131.296 Y141.905 E57.03664
G0 F6000 X131.535 Y142.229
G1 F1200 X132.659 Y141.56 E57.08014
G1 X133.977 Y141.297 E57.12484
G1 X184.802 Y141.297 E58.81529
G1 X185.926 Y141.573 E58.85378
G1 X187.135 Y142.2 E58.89908
G1 X187.987 Y143.113 E58.94062
G1 X188.656 Y144.237 E58.98412
G1 X188.919 Y145.555 E59.02882
G1 X188.919 Y183.38 E60.28689
G1 X188.643 Y184.504 E60.32538
G1 X188.016 Y185.713 E60.37068
G1 X187.103 Y186.565 E60.41221
G1 X185.979 Y187.234 E60.45572
G1 X184.661 Y187.497 E60.50042
G1 X133.836 Y187.497 E62.19087
G1 X132.712 Y187.221 E62.22936
G1 X131.503 Y186.594 E62.27466
G1 X130.651 Y185.681 E62.31619
G1 X129.982 Y184.557 E62.3597
G1 X129.719 Y183.239 E62.4044
G1 X129.719 Y145.414 E63.66246
G1 X129.995 Y144.29 E63.70096
G1 X130.622 Y143.081 E63.74626
G1 X131.535 Y142.229 E63.78779
G0 F6000 X131.777 Y142.551
G1 F1200 X132.807 Y141.938 E63.82766
G1 X134.015 Y141.697 E63.86863
G1 X184.755 Y141.697 E65.55625
G1 X185.784 Y141.95 E65.59149
G1 X186.888 Y142.522 E65.63285
G1 X187.665 Y143.355 E65.67073
G1 X188.278 Y144.385 E65.7106
G1 X188.519 Y145.593 E65.75157
G1 X188.519 Y183.333 E67.00681
G1 X188.266 Y184.362 E67.04205
G1 X187.694 Y185.466 E67.08341
G1 X186.861 Y186.243 E67.12129
G1 X185.831 Y186.856 E67.16116
G1 X184.623 Y187.097 E67.20213
G1 X133.883 Y187.097 E68.88975
G1 X132.854 Y186.844 E68.92499
G1 X131.75 Y186.272 E68.96635
G1 X130.973 Y185.439 E69.00424
G1 X130.36 Y184.409 E69.0441
G1 X130.119 Y183.201 E69.08507
G1 X130.119 Y145.461 E70.34031
G1 X130.372 Y144.432 E70.37555
G1 X130.944 Y143.328 E70.41691
G1 X131.777 Y142.551 E70.4548
G0 F6000 X132.019 Y142.873
G1 F1200 X132.955 Y142.316 E70.49102
G1 X134.053 Y142.097 E70.52826
G1 X184.709 Y142.097 E72.21309
G1 X185.641 Y142.326 E72.24501
G1 X186.641 Y142.844 E72.28246
G1 X187.343 Y143.597 E72.31671
G1 X187.9 Y144.533 E72.35293
G1 X188.119 Y145.631 E72.39017
G1 X188.119 Y183.287 E73.64261
G1 X187.89 Y184.219 E73.67453
G1 X187.372 Y185.219 E73.71199
G1 X186.619 Y185.921 E73.74623
G1 X185.683 Y186.478 E73.78246
G1 X184.585 Y186.697 E73.8197
G1 X133.929 Y186.697 E75.50452
G1 X132.997 Y186.468 E75.53644
G1 X131.997 Y185.95 E75.5739
G1 X131.295 Y185.197 E75.60814
G1 X130.738 Y184.261 E75.64437
G1 X130.519 Y183.163 E75.68161
G1 X130.519 Y145.507 E76.93405
G1 X130.748 Y144.575 E76.96597
G1 X131.266 Y143.575 E77.00343
G1 X132.019 Y142.873 E77.03767
G0 F6000 X132.261 Y143.195
G1 F1200 X133.103 Y142.694 E77.07026
G1 X134.091 Y142.497 E77.10377
G1 X184.663 Y142.497 E78.7858
G1 X185.498 Y142.702 E78.81439
G1 X186.394 Y143.166 E78.84795
G1 X187.021 Y143.839 E78.87855
G1 X187.522 Y144.681 E78.91113
G1 X187.719 Y145.669 E78.94464
G1 X187.719 Y183.241 E80.19429
G1 X187.514 Y184.076 E80.22289
G1 X187.05 Y184.972 E80.25645
G1 X186.377 Y185.599 E80.28704
G1 X185.535 Y186.1 E80.31963
G1 X184.547 Y186.297 E80.35314
G1 X133.975 Y186.297 E82.03517
G1 X133.14 Y186.092 E82.06377
G1 X132.244 Y185.628 E82.09733
G1 X131.617 Y184.955 E82.12792
G1 X131.116 Y184.113 E82.16051
G1 X130.919 Y183.125 E82.19401
G1 X130.919 Y145.553 E83.44366
G1 X131.124 Y144.718 E83.47226
G1 X131.588 Y143.822 E83.50582
G1 X132.261 Y143.195 E83.53641
G0 F6000 X132.503 Y143.517
G1 F1200 X133.251 Y143.072 E83.56536
G1 X134.129 Y142.897 E83.59514
G1 X184.617 Y142.897 E85.27438
G1 X185.355 Y143.078 E85.29965
G1 X186.147 Y143.488 E85.32931
G1 X186.699 Y144.081 E85.35626
G1 X187.144 Y144.829 E85.38521
G1 X187.319 Y145.707 E85.41498
G1 X187.319 Y183.195 E86.66184
G1 X187.138 Y183.933 E86.68711
G1 X186.728 Y184.725 E86.71678
G1 X186.135 Y185.277 E86.74372
G1 X185.387 Y185.722 E86.77267
G1 X184.509 Y185.897 E86.80245
G1 X134.021 Y185.897 E88.48169
G1 X133.283 Y185.716 E88.50696
G1 X132.491 Y185.306 E88.53662
G1 X131.939 Y184.713 E88.56357
G1 X131.494 Y183.965 E88.59252
G1 X131.319 Y183.087 E88.62229
G1 X131.319 Y145.599 E89.86915
G1 X131.5 Y144.861 E89.89442
G1 X131.91 Y144.069 E89.92408
G1 X132.503 Y143.517 E89.95103
G0 F6000 X132.742 Y143.841
G1 F1200 X133.399 Y143.45 E89.97646
G1 X134.167 Y143.297 E90.0025
G1 X184.567 Y143.297 E91.67882
G1 X185.216 Y143.456 E91.70104
G1 X185.902 Y143.811 E91.72673
G1 X186.375 Y144.32 E91.74984
G1 X186.766 Y144.977 E91.77527
G1 X186.919 Y145.745 E91.80132
G1 X186.919 Y183.145 E93.04524
G1 X186.76 Y183.794 E93.06747
G1 X186.405 Y184.48 E93.09316
G1 X185.896 Y184.953 E93.11627
G1 X185.239 Y185.344 E93.1417
G1 X184.471 Y185.497 E93.16774
G1 X134.071 Y185.497 E94.84406
G1 X133.422 Y185.338 E94.86628
G1 X132.736 Y184.983 E94.89197
G1 X132.263 Y184.474 E94.91508
G1 X131.872 Y183.817 E94.94051
G1 X131.719 Y183.049 E94.96656
G1 X131.719 Y145.649 E96.21048
G1 X131.878 Y145 E96.23271
G1 X132.233 Y144.314 E96.2584
G1 X132.742 Y143.841 E96.28151
G0 F6000 X132.981 Y144.165
G1 F1200 X133.547 Y143.828 E96.30342
G1 X134.205 Y143.697 E96.32573
G1 X184.517 Y143.697 E97.99912
G1 X185.077 Y143.834 E98.01829
G1 X185.657 Y144.134 E98.04001
G1 X186.051 Y144.559 E98.05929
G1 X186.388 Y145.125 E98.0812
G1 X186.519 Y145.783 E98.10351
G1 X186.519 Y183.095 E99.34451
G1 X186.382 Y183.655 E99.36369
G1 X186.082 Y184.235 E99.38541
G1 X185.657 Y184.629 E99.40468
G1 X185.091 Y184.966 E99.42659
G1 X184.433 Y185.097 E99.44891
G1 X134.121 Y185.097 E101.12229
G1 X133.561 Y184.96 E101.14146
G1 X132.981 Y184.66 E101.16318
G1 X132.587 Y184.235 E101.18246
G1 X132.25 Y183.669 E101.20437
G1 X132.119 Y183.011 E101.22668
G1 X132.119 Y145.699 E102.46769
G1 X132.256 Y145.139 E102.48686
G1 X132.556 Y144.559 E102.50858
G1 X132.981 Y144.165 E102.52785
G0 F6000 X133.22 Y144.489
G1 F1200 X133.695 Y144.206 E102.54624
G1 X134.243 Y144.097 E102.56483
G1 X184.467 Y144.097 E104.23528
G1 X184.938 Y144.212 E104.25141
G1 X185.411 Y144.457 E104.26913
G1 X185.727 Y144.798 E104.28459
G1 X186.01 Y145.273 E104.30298
G1 X186.119 Y145.821 E104.32156
G1 X186.119 Y183.045 E105.55964
G1 X186.004 Y183.516 E105.57577
G1 X185.759 Y183.989 E105.59348
G1 X185.418 Y184.305 E105.60895
G1 X184.943 Y184.588 E105.62734
G1 X184.395 Y184.697 E105.64592
G1 X134.171 Y184.697 E107.31638
G1 X133.7 Y184.582 E107.3325
G1 X133.227 Y184.337 E107.35022
G1 X132.911 Y183.996 E107.36568
G1 X132.628 Y183.521 E107.38407
G1 X132.519 Y182.973 E107.40266
G1 X132.519 Y145.749 E108.64073
G1 X132.634 Y145.278 E108.65686
G1 X132.879 Y144.805 E108.67457
G1 X133.22 Y144.489 E108.69004
G0 F6000 X133.459 Y144.813
G1 F1200 X133.843 Y144.584 E108.70491
G1 X134.281 Y144.497 E108.71976
G1 X184.417 Y144.497 E110.38729
G1 X184.799 Y144.59 E110.40037
G1 X185.165 Y144.78 E110.41408
G1 X185.403 Y145.037 E110.42573
G1 X185.632 Y145.421 E110.4406
G1 X185.719 Y145.859 E110.45545
G1 X185.719 Y182.995 E111.6906
G1 X185.626 Y183.377 E111.70368
G1 X185.436 Y183.743 E111.7174
G1 X185.179 Y183.981 E111.72905
G1 X184.795 Y184.21 E111.74392
G1 X184.357 Y184.297 E111.75877
G1 X134.221 Y184.297 E113.4263
G1 X133.839 Y184.204 E113.43938
G1 X133.473 Y184.014 E113.45309
G1 X133.235 Y183.757 E113.46474
G1 X133.006 Y183.373 E113.47961
G1 X132.919 Y182.935 E113.49446
G1 X132.919 Y145.799 E114.72961
G1 X133.012 Y145.417 E114.74269
G1 X133.202 Y145.051 E114.75641
G1 X133.459 Y144.813 E114.76806
G0 F6000 X133.664 Y145.157
G1 F1200 X133.991 Y144.962 E114.78072
G1 X134.319 Y144.897 E114.79184
G1 X184.368 Y144.897 E116.45648
G1 X184.657 Y144.967 E116.46637
G1 X184.92 Y145.104 E116.47623
G1 X185.059 Y145.242 E116.48274
G1 X185.254 Y145.569 E116.49541
G1 X185.319 Y145.897 E116.50653
G1 X185.319 Y182.946 E117.73878
G1 X185.249 Y183.235 E117.74867
G1 X185.112 Y183.498 E117.75854
G1 X184.974 Y183.637 E117.76505
G1 X184.647 Y183.832 E117.77771
G1 X184.319 Y183.897 E117.78884
G1 X134.27 Y183.897 E119.45347
G1 X133.981 Y183.827 E119.46336
G1 X133.718 Y183.69 E119.47323
G1 X133.579 Y183.552 E119.47974
G1 X133.384 Y183.225 E119.4924
G1 X133.319 Y182.897 E119.50352
G1 X133.319 Y145.848 E120.73578
G1 X133.389 Y145.559 E120.74567
G1 X133.526 Y145.296 E120.75553
G1 X133.664 Y145.157 E120.76205
G0 F6000 X133.869 Y145.501
G1 F1200 X134.139 Y145.34 E120.7725
G1 X134.319 Y145.297 E120.77866
G1 X184.319 Y145.297 E122.44167
G1 X184.563 Y145.356 E122.45001
G1 X184.715 Y145.447 E122.45591
G1 X184.876 Y145.717 E122.46636
G1 X184.919 Y145.897 E122.47252
G1 X184.919 Y182.897 E123.70314
G1 X184.86 Y183.141 E123.71149
G1 X184.769 Y183.293 E123.71738
G1 X184.499 Y183.454 E123.72784
G1 X184.319 Y183.497 E123.734
G1 X134.319 Y183.497 E125.397
G1 X134.075 Y183.438 E125.40535
G1 X133.923 Y183.347 E125.41124
G1 X133.762 Y183.077 E125.4217
G1 X133.719 Y182.897 E125.42785
G1 X133.719 Y145.897 E126.65848
G1 X133.778 Y145.653 E126.66683
G1 X133.869 Y145.501 E126.67272
G0 F6000 X134.158 Y145.778
G1 F1200 X134.319 Y145.697 E126.67872
G1 X184.319 Y145.697 E128.34172
G1 X184.438 Y145.736 E128.34589
G1 X184.519 Y145.897 E128.35188
G1 X184.519 Y182.897 E129.58251
G1 X184.48 Y183.016 E129.58667
G1 X184.319 Y183.097 E129.59267
G1 X134.319 Y183.097 E131.25567
G1 X134.2 Y183.058 E131.25984
G1 X134.119 Y182.897 E131.26583
