;FLAVOR:Marlin
;TIME:4430
;Filament used: 3.25524m
;Layer height: 0.2
;MINX:130.002
;MINY:117.199
;MINZ:0.2
;MAXX:195.602
;MAXY:170.799
;MAXZ:28.4
;Generated with Cura_SteamEngine 5.3.0
M140 S60
M105
M190 S60
M104 S200
M105
M109 S200
M82 ;absolute extrusion mode
M201 X500.00 Y500.00 Z100.00 E5000.00 ;Setup machine max acceleration
M203 X500.00 Y500.00 Z10.00 E50.00 ;Setup machine max feedrate
M204 P500.00 R1000.00 T500.00 ;Setup Print/Retract/Travel acceleration
M205 X8.00 Y8.00 Z0.40 E5.00 ;Setup Jerk
M220 S100 ;Reset Feedrate
M221 S100 ;Reset Flowrate

G28 ;Home
M420 S1 Z2 ;Enable ABL using saved Mesh and Fade Height

G92 E0 ;Reset Extruder
G1 Z2.0 F3000 ;Move Z Axis up
G1 X10.1 Y20 Z0.28 F5000.0 ;Move to start position
G1 X10.1 Y200.0 Z0.28 F1500.0 E15 ;Draw the first line
G1 X10.4 Y200.0 Z0.28 F5000.0 ;Move to side a little
G1 X10.4 Y20 Z0.28 F1500.0 E30 ;Draw the second line
G92 E0 ;Reset Extruder
G1 Z2.0 F3000 ;Move Z Axis up

G92 E0
G92 E0
G1 F1500 E-6.5
;LAYER_COUNT:143
;LAYER:0
M107
G0 F6000 X131.521 Y120.223 Z0.2
;TYPE:SKIRT
G1 F1500 E0
G1 F1200 X133.096 Y118.749 E0.07175
G1 X134.968 Y117.637 E0.14417
G1 X137.155 Y117.199 E0.21835
G1 X188.655 Y117.199 E1.93125
G1 X190.551 Y117.665 E1.99619
G1 X192.578 Y118.718 E2.07216
G1 X194.052 Y120.293 E2.14391
G1 X195.164 Y122.165 E2.21633
G1 X195.602 Y124.352 E2.29051
G1 X195.602 Y163.852 E3.60428
G1 X195.136 Y165.748 E3.66922
G1 X194.083 Y167.775 E3.7452
G1 X192.508 Y169.249 E3.81694
G1 X190.636 Y170.361 E3.88936
G1 X188.449 Y170.799 E3.96355
G1 X136.949 Y170.799 E5.67644
G1 X135.053 Y170.333 E5.74138
G1 X133.026 Y169.28 E5.81735
G1 X131.552 Y167.705 E5.8891
G1 X130.44 Y165.833 E5.96152
G1 X130.002 Y163.646 E6.03571
G1 X130.002 Y124.146 E7.34948
G1 X130.468 Y122.25 E7.41442
G1 X131.521 Y120.223 E7.49039
G0 F6000 X131.844 Y120.468
G1 F1200 X133.337 Y119.071 E7.5584
G1 X135.114 Y118.015 E7.62715
G1 X137.193 Y117.599 E7.69767
G1 X188.609 Y117.599 E9.40777
G1 X190.408 Y118.041 E9.46938
G1 X192.333 Y119.041 E9.54153
G1 X193.73 Y120.534 E9.60954
G1 X194.786 Y122.311 E9.67829
G1 X195.202 Y124.39 E9.74881
G1 X195.202 Y163.806 E11.05979
G1 X194.76 Y165.605 E11.12141
G1 X193.76 Y167.53 E11.19356
G1 X192.267 Y168.927 E11.26156
G1 X190.49 Y169.983 E11.33031
G1 X188.411 Y170.399 E11.40083
G1 X136.995 Y170.399 E13.11093
G1 X135.196 Y169.957 E13.17255
G1 X133.271 Y168.957 E13.2447
G1 X131.874 Y167.464 E13.3127
G1 X130.818 Y165.687 E13.38146
G1 X130.402 Y163.608 E13.45197
G1 X130.402 Y124.192 E14.76296
G1 X130.844 Y122.393 E14.82457
G1 X131.844 Y120.468 E14.89672
G0 F6000 X132.167 Y120.713
G1 F1200 X133.578 Y119.393 E14.96098
G1 X135.26 Y118.394 E15.02605
G1 X137.232 Y117.999 E15.09294
G1 X188.562 Y117.999 E16.80019
G1 X190.266 Y118.418 E16.85855
G1 X192.088 Y119.364 E16.92683
G1 X193.408 Y120.775 E16.9911
G1 X194.407 Y122.457 E17.05616
G1 X194.802 Y124.429 E17.12305
G1 X194.802 Y163.759 E18.43118
G1 X194.383 Y165.463 E18.48954
G1 X193.437 Y167.285 E18.55782
G1 X192.026 Y168.605 E18.62208
G1 X190.344 Y169.604 E18.68715
G1 X188.372 Y169.999 E18.75404
G1 X137.042 Y169.999 E20.46129
G1 X135.338 Y169.58 E20.51965
G1 X133.516 Y168.634 E20.58793
G1 X132.196 Y167.223 E20.6522
G1 X131.197 Y165.541 E20.71726
G1 X130.802 Y163.569 E20.78415
G1 X130.802 Y124.239 E22.09228
G1 X131.221 Y122.535 E22.15064
G1 X132.167 Y120.713 E22.21892
G0 F6000 X132.49 Y120.958
G1 F1200 X133.819 Y119.715 E22.27944
G1 X135.406 Y118.772 E22.34084
G1 X137.27 Y118.399 E22.40407
G1 X188.516 Y118.399 E24.10852
G1 X190.123 Y118.794 E24.16356
G1 X191.843 Y119.687 E24.22802
G1 X193.086 Y121.016 E24.28854
G1 X194.029 Y122.603 E24.34994
G1 X194.402 Y124.467 E24.41316
G1 X194.402 Y163.713 E25.71849
G1 X194.007 Y165.32 E25.77353
G1 X193.114 Y167.04 E25.83799
G1 X191.785 Y168.283 E25.89851
G1 X190.198 Y169.226 E25.95991
G1 X188.334 Y169.599 E26.02314
G1 X137.088 Y169.599 E27.72759
G1 X135.481 Y169.204 E27.78263
G1 X133.761 Y168.311 E27.84709
G1 X132.518 Y166.982 E27.90761
G1 X131.575 Y165.395 E27.96901
G1 X131.202 Y163.531 E28.03223
G1 X131.202 Y124.285 E29.33756
G1 X131.597 Y122.678 E29.3926
G1 X132.49 Y120.958 E29.45706
G0 F6000 X132.813 Y121.203
G1 F1200 X134.06 Y120.037 E29.51384
G1 X135.552 Y119.15 E29.57157
G1 X137.308 Y118.799 E29.63113
G1 X188.47 Y118.799 E31.33279
G1 X189.98 Y119.17 E31.3845
G1 X191.598 Y120.01 E31.44514
G1 X192.764 Y121.257 E31.50192
G1 X193.651 Y122.749 E31.55965
G1 X194.002 Y124.505 E31.61921
G1 X194.002 Y163.667 E32.92175
G1 X193.631 Y165.177 E32.97346
G1 X192.791 Y166.795 E33.0341
G1 X191.544 Y167.961 E33.09088
G1 X190.052 Y168.848 E33.14861
G1 X188.296 Y169.199 E33.20817
G1 X137.134 Y169.199 E34.90983
G1 X135.624 Y168.828 E34.96154
G1 X134.006 Y167.988 E35.02218
G1 X132.84 Y166.741 E35.07896
G1 X131.953 Y165.249 E35.13669
G1 X131.602 Y163.493 E35.19625
G1 X131.602 Y124.331 E36.49878
G1 X131.973 Y122.821 E36.5505
G1 X132.813 Y121.203 E36.61114
G0 F6000 X133.136 Y121.448
G1 F1200 X134.301 Y120.359 E36.66418
G1 X135.698 Y119.528 E36.71824
G1 X137.346 Y119.199 E36.77413
G1 X188.423 Y119.199 E38.47296
G1 X189.838 Y119.547 E38.52143
G1 X191.353 Y120.333 E38.57819
G1 X192.442 Y121.498 E38.63124
G1 X193.273 Y122.895 E38.6853
G1 X193.602 Y124.543 E38.74119
G1 X193.602 Y163.62 E40.0409
G1 X193.254 Y165.035 E40.08937
G1 X192.468 Y166.55 E40.14613
G1 X191.303 Y167.639 E40.19917
G1 X189.906 Y168.47 E40.25324
G1 X188.258 Y168.799 E40.30913
G1 X137.181 Y168.799 E42.00796
G1 X135.766 Y168.451 E42.05642
G1 X134.251 Y167.665 E42.11319
G1 X133.162 Y166.5 E42.16623
G1 X132.331 Y165.103 E42.2203
G1 X132.002 Y163.455 E42.27619
G1 X132.002 Y124.378 E43.5759
G1 X132.35 Y122.963 E43.62436
G1 X133.136 Y121.448 E43.68113
G0 F6000 X133.459 Y121.693
G1 F1200 X134.54 Y120.683 E43.73033
G1 X135.846 Y119.906 E43.78088
G1 X137.384 Y119.599 E43.83304
G1 X188.377 Y119.599 E45.52908
G1 X189.695 Y119.923 E45.57422
G1 X191.108 Y120.656 E45.62716
G1 X192.118 Y121.737 E45.67637
G1 X192.895 Y123.043 E45.72691
G1 X193.202 Y124.581 E45.77907
G1 X193.202 Y163.574 E47.07599
G1 X192.878 Y164.892 E47.12113
G1 X192.145 Y166.305 E47.17407
G1 X191.064 Y167.315 E47.22328
G1 X189.758 Y168.092 E47.27382
G1 X188.22 Y168.399 E47.32598
G1 X137.227 Y168.399 E49.02202
G1 X135.909 Y168.075 E49.06716
G1 X134.496 Y167.342 E49.1201
G1 X133.486 Y166.261 E49.16931
G1 X132.709 Y164.955 E49.21985
G1 X132.402 Y163.417 E49.27202
G1 X132.402 Y124.424 E50.56893
G1 X132.726 Y123.106 E50.61407
G1 X133.459 Y121.693 E50.66702
G0 F6000 X133.782 Y121.938
G1 F1200 X134.779 Y121.007 E50.71239
G1 X135.994 Y120.284 E50.75941
G1 X137.422 Y119.999 E50.80784
G1 X188.331 Y119.999 E52.50108
G1 X189.552 Y120.299 E52.5429
G1 X190.863 Y120.979 E52.59202
G1 X191.794 Y121.976 E52.63739
G1 X192.517 Y123.191 E52.68442
G1 X192.802 Y124.619 E52.73285
G1 X192.802 Y163.528 E54.02697
G1 X192.502 Y164.749 E54.06879
G1 X191.822 Y166.06 E54.11791
G1 X190.825 Y166.991 E54.16328
G1 X189.61 Y167.714 E54.2103
G1 X188.182 Y167.999 E54.25873
G1 X137.273 Y167.999 E55.95197
G1 X136.052 Y167.699 E55.99379
G1 X134.741 Y167.019 E56.04291
G1 X133.81 Y166.022 E56.08828
G1 X133.087 Y164.807 E56.13531
G1 X132.802 Y163.379 E56.18374
G1 X132.802 Y124.47 E57.47786
G1 X133.102 Y123.249 E57.51968
G1 X133.782 Y121.938 E57.5688
G0 F6000 X134.105 Y122.183
G1 F1200 X135.018 Y121.331 E57.61033
G1 X136.142 Y120.662 E57.65384
G1 X137.46 Y120.399 E57.69854
G1 X188.285 Y120.399 E59.38899
G1 X189.409 Y120.675 E59.42748
G1 X190.618 Y121.302 E59.47278
G1 X191.47 Y122.215 E59.51431
G1 X192.139 Y123.339 E59.55782
G1 X192.402 Y124.657 E59.60252
G1 X192.402 Y163.482 E60.89384
G1 X192.126 Y164.606 E60.93234
G1 X191.499 Y165.815 E60.97764
G1 X190.586 Y166.667 E61.01917
G1 X189.462 Y167.336 E61.06268
G1 X188.144 Y167.599 E61.10738
G1 X137.319 Y167.599 E62.79782
G1 X136.195 Y167.323 E62.83632
G1 X134.986 Y166.696 E62.88162
G1 X134.134 Y165.783 E62.92315
G1 X133.465 Y164.659 E62.96666
G1 X133.202 Y163.341 E63.01136
G1 X133.202 Y124.516 E64.30268
G1 X133.478 Y123.392 E64.34118
G1 X134.105 Y122.183 E64.38647
G0 F6000 X134.427 Y122.43
G1 F1200 X135.26 Y121.653 E64.42436
G1 X136.29 Y121.04 E64.46423
G1 X137.498 Y120.799 E64.5052
G1 X188.238 Y120.799 E66.19282
G1 X189.267 Y121.052 E66.22806
G1 X190.371 Y121.624 E66.26942
G1 X191.148 Y122.457 E66.3073
G1 X191.761 Y123.487 E66.34717
G1 X192.002 Y124.695 E66.38814
G1 X192.002 Y163.435 E67.67664
G1 X191.749 Y164.464 E67.71188
G1 X191.177 Y165.568 E67.75324
G1 X190.344 Y166.345 E67.79112
G1 X189.314 Y166.958 E67.83099
G1 X188.106 Y167.199 E67.87196
G1 X137.366 Y167.199 E69.55958
G1 X136.337 Y166.946 E69.59482
G1 X135.233 Y166.374 E69.63618
G1 X134.456 Y165.541 E69.67407
G1 X133.843 Y164.511 E69.71393
G1 X133.602 Y163.303 E69.7549
G1 X133.602 Y124.563 E71.0434
G1 X133.855 Y123.534 E71.07864
G1 X134.427 Y122.43 E71.12
G0 F6000 X134.749 Y122.677
G1 F1200 X135.502 Y121.975 E71.15424
G1 X136.438 Y121.418 E71.19047
G1 X137.536 Y121.199 E71.2277
G1 X188.192 Y121.199 E72.91253
G1 X189.124 Y121.428 E72.94445
G1 X190.124 Y121.946 E72.98191
G1 X190.826 Y122.699 E73.01615
G1 X191.383 Y123.635 E73.05238
G1 X191.602 Y124.733 E73.08961
G1 X191.602 Y163.389 E74.37532
G1 X191.373 Y164.321 E74.40724
G1 X190.855 Y165.321 E74.4447
G1 X190.102 Y166.023 E74.47894
G1 X189.166 Y166.58 E74.51516
G1 X188.068 Y166.799 E74.5524
G1 X137.412 Y166.799 E76.23723
G1 X136.48 Y166.57 E76.26915
G1 X135.48 Y166.052 E76.30661
G1 X134.778 Y165.299 E76.34085
G1 X134.221 Y164.363 E76.37707
G1 X134.002 Y163.265 E76.41431
G1 X134.002 Y124.609 E77.70002
G1 X134.231 Y123.677 E77.73194
G1 X134.749 Y122.677 E77.76939
G0 F6000 X135.071 Y122.924
G1 F1200 X135.744 Y122.297 E77.79999
G1 X136.586 Y121.796 E77.83257
G1 X137.574 Y121.599 E77.86608
G1 X188.146 Y121.599 E79.54811
G1 X188.981 Y121.804 E79.57671
G1 X189.877 Y122.268 E79.61027
G1 X190.504 Y122.941 E79.64086
G1 X191.005 Y123.783 E79.67345
G1 X191.202 Y124.771 E79.70696
G1 X191.202 Y163.343 E80.98987
G1 X190.997 Y164.178 E81.01847
G1 X190.533 Y165.074 E81.05203
G1 X189.86 Y165.701 E81.08262
G1 X189.018 Y166.202 E81.11521
G1 X188.03 Y166.399 E81.14871
G1 X137.458 Y166.399 E82.83075
G1 X136.623 Y166.194 E82.85934
G1 X135.727 Y165.73 E82.8929
G1 X135.1 Y165.057 E82.9235
G1 X134.599 Y164.215 E82.95608
G1 X134.402 Y163.227 E82.98959
G1 X134.402 Y124.655 E84.2725
G1 X134.607 Y123.82 E84.3011
G1 X135.071 Y122.924 E84.33466
G0 F6000 X135.393 Y123.171
G1 F1200 X135.986 Y122.619 E84.3616
G1 X136.734 Y122.174 E84.39055
G1 X137.612 Y121.999 E84.42033
G1 X188.1 Y121.999 E86.09957
G1 X188.838 Y122.18 E86.12484
G1 X189.63 Y122.59 E86.1545
G1 X190.182 Y123.183 E86.18145
G1 X190.627 Y123.931 E86.2104
G1 X190.802 Y124.809 E86.24017
G1 X190.802 Y163.297 E87.52029
G1 X190.621 Y164.035 E87.54556
G1 X190.211 Y164.827 E87.57523
G1 X189.618 Y165.379 E87.60217
G1 X188.87 Y165.824 E87.63112
G1 X187.992 Y165.999 E87.6609
G1 X137.504 Y165.999 E89.34013
G1 X136.766 Y165.818 E89.36541
G1 X135.974 Y165.408 E89.39507
G1 X135.422 Y164.815 E89.42202
G1 X134.977 Y164.067 E89.45096
G1 X134.802 Y163.189 E89.48074
G1 X134.802 Y124.701 E90.76086
G1 X134.983 Y123.963 E90.78613
G1 X135.393 Y123.171 E90.81579
G0 F6000 X135.716 Y123.416
G1 F1200 X136.225 Y122.943 E90.8389
G1 X136.882 Y122.552 E90.86433
G1 X137.65 Y122.399 E90.89038
G1 X188.05 Y122.399 E92.56669
G1 X188.699 Y122.558 E92.58891
G1 X189.385 Y122.913 E92.6146
G1 X189.858 Y123.422 E92.63771
G1 X190.249 Y124.079 E92.66314
G1 X190.402 Y124.847 E92.68919
G1 X190.402 Y163.247 E93.96638
G1 X190.243 Y163.896 E93.9886
G1 X189.888 Y164.582 E94.01429
G1 X189.379 Y165.055 E94.0374
G1 X188.722 Y165.446 E94.06283
G1 X187.954 Y165.599 E94.08888
G1 X137.554 Y165.599 E95.76519
G1 X136.905 Y165.44 E95.78741
G1 X136.219 Y165.085 E95.8131
G1 X135.746 Y164.576 E95.83621
G1 X135.355 Y163.919 E95.86164
G1 X135.202 Y163.151 E95.88769
G1 X135.202 Y124.751 E97.16488
G1 X135.361 Y124.102 E97.1871
G1 X135.716 Y123.416 E97.21279
G0 F6000 X136.039 Y123.661
G1 F1200 X136.464 Y123.267 E97.23207
G1 X137.03 Y122.93 E97.25398
G1 X137.688 Y122.799 E97.27629
G1 X188 Y122.799 E98.94968
G1 X188.56 Y122.936 E98.96885
G1 X189.14 Y123.236 E98.99057
G1 X189.534 Y123.661 E99.00985
G1 X189.871 Y124.227 E99.03176
G1 X190.002 Y124.885 E99.05407
G1 X190.002 Y163.197 E100.32833
G1 X189.865 Y163.757 E100.34751
G1 X189.565 Y164.337 E100.36923
G1 X189.14 Y164.731 E100.3885
G1 X188.574 Y165.068 E100.41041
G1 X187.916 Y165.199 E100.43273
G1 X137.604 Y165.199 E102.10611
G1 X137.044 Y165.062 E102.12528
G1 X136.464 Y164.762 E102.147
G1 X136.07 Y164.337 E102.16628
G1 X135.733 Y163.771 E102.18819
G1 X135.602 Y163.113 E102.2105
G1 X135.602 Y124.801 E103.48476
G1 X135.739 Y124.241 E103.50394
G1 X136.039 Y123.661 E103.52566
G0 F6000 X136.362 Y123.907
G1 F1200 X136.703 Y123.591 E103.54112
G1 X137.178 Y123.308 E103.55951
G1 X137.726 Y123.199 E103.57809
G1 X187.95 Y123.199 E105.24855
G1 X188.421 Y123.314 E105.26468
G1 X188.894 Y123.559 E105.28239
G1 X189.21 Y123.9 E105.29786
G1 X189.493 Y124.375 E105.31625
G1 X189.602 Y124.923 E105.33483
G1 X189.602 Y163.147 E106.60617
G1 X189.487 Y163.618 E106.62229
G1 X189.242 Y164.091 E106.64001
G1 X188.901 Y164.407 E106.65547
G1 X188.426 Y164.69 E106.67386
G1 X187.878 Y164.799 E106.69245
G1 X137.654 Y164.799 E108.3629
G1 X137.183 Y164.684 E108.37903
G1 X136.71 Y164.439 E108.39675
G1 X136.394 Y164.098 E108.41221
G1 X136.111 Y163.623 E108.4306
G1 X136.002 Y163.075 E108.44918
G1 X136.002 Y124.851 E109.72052
G1 X136.117 Y124.38 E109.73664
G1 X136.362 Y123.907 E109.75436
G0 F6000 X136.685 Y124.153
G1 F1200 X136.942 Y123.915 E109.76601
G1 X137.326 Y123.686 E109.78088
G1 X137.764 Y123.599 E109.79573
G1 X187.9 Y123.599 E111.46326
G1 X188.282 Y123.692 E111.47634
G1 X188.648 Y123.882 E111.49006
G1 X188.886 Y124.139 E111.50171
G1 X189.115 Y124.523 E111.51658
G1 X189.202 Y124.961 E111.53143
G1 X189.202 Y163.097 E112.79984
G1 X189.109 Y163.479 E112.81291
G1 X188.919 Y163.845 E112.82663
G1 X188.662 Y164.083 E112.83828
G1 X188.278 Y164.312 E112.85315
G1 X187.84 Y164.399 E112.868
G1 X137.704 Y164.399 E114.53553
G1 X137.322 Y164.306 E114.54861
G1 X136.956 Y164.116 E114.56233
G1 X136.718 Y163.859 E114.57398
G1 X136.489 Y163.475 E114.58885
G1 X136.402 Y163.037 E114.6037
G1 X136.402 Y124.901 E115.87211
G1 X136.495 Y124.519 E115.88518
G1 X136.685 Y124.153 E115.8989
G0 F6000 X137.009 Y124.398
G1 F1200 X137.147 Y124.259 E115.90541
G1 X137.474 Y124.064 E115.91808
G1 X137.802 Y123.999 E115.9292
G1 X187.851 Y123.999 E117.59384
G1 X188.14 Y124.069 E117.60373
G1 X188.403 Y124.206 E117.61359
G1 X188.542 Y124.344 E117.6201
G1 X188.737 Y124.671 E117.63277
G1 X188.802 Y124.999 E117.64389
G1 X188.802 Y163.048 E118.9094
G1 X188.732 Y163.337 E118.91929
G1 X188.595 Y163.6 E118.92916
G1 X188.457 Y163.739 E118.93567
G1 X188.13 Y163.934 E118.94833
G1 X187.802 Y163.999 E118.95946
G1 X137.753 Y163.999 E120.62409
G1 X137.464 Y163.929 E120.63398
G1 X137.201 Y163.792 E120.64385
G1 X137.062 Y163.654 E120.65036
G1 X136.867 Y163.327 E120.66302
G1 X136.802 Y162.999 E120.67414
G1 X136.802 Y124.95 E121.93966
G1 X136.872 Y124.661 E121.94955
G1 X137.009 Y124.398 E121.95941
G0 F6000 X137.352 Y124.603
G1 F1200 X137.622 Y124.442 E121.96987
G1 X137.802 Y124.399 E121.97602
G1 X187.802 Y124.399 E123.63903
G1 X188.046 Y124.458 E123.64738
G1 X188.198 Y124.549 E123.65327
G1 X188.359 Y124.819 E123.66373
G1 X188.402 Y124.999 E123.66988
G1 X188.402 Y162.999 E124.93377
G1 X188.343 Y163.243 E124.94212
G1 X188.252 Y163.395 E124.94801
G1 X187.982 Y163.556 E124.95846
G1 X187.802 Y163.599 E124.96462
G1 X137.802 Y163.599 E126.62763
G1 X137.558 Y163.54 E126.63598
G1 X137.406 Y163.449 E126.64187
G1 X137.245 Y163.179 E126.65232
G1 X137.202 Y162.999 E126.65848
G1 X137.202 Y124.999 E127.92236
G1 X137.261 Y124.755 E127.93071
G1 X137.352 Y124.603 E127.93661
G0 F6000 X137.641 Y124.88
G1 F1200 X137.802 Y124.799 E127.9426
G1 X187.802 Y124.799 E129.60561
G1 X187.921 Y124.838 E129.60977
G1 X188.002 Y124.999 E129.61577
G1 X188.002 Y162.999 E130.87965
G1 X187.963 Y163.118 E130.88382
G1 X187.802 Y163.199 E130.88981
G1 X137.802 Y163.199 E132.55282
G1 X137.683 Y163.16 E132.55698
G1 X137.602 Y162.999 E132.56298
G1 X137.602 Y124.999 E133.82686
