;FLAVOR:Marlin
;TIME:5324
;Filament used: 4.08766m
;Layer height: 0.2
;MINX:141.557
;MINY:120.612
;MINZ:0.2
;MAXX:212.157
;MAXY:178.012
;MAXZ:31.4
;Generated with Cura_SteamEngine 5.3.0
M140 S60
M105
M190 S60
M104 S200
M105
M109 S200
M82 ;absolute extrusion mode
M201 X500.00 Y500.00 Z100.00 E5000.00 ;Setup machine max acceleration
M203 X500.00 Y500.00 Z10.00 E50.00 ;Setup machine max feedrate
M204 P500.00 R1000.00 T500.00 ;Setup Print/Retract/Travel acceleration
M205 X8.00 Y8.00 Z0.40 E5.00 ;Setup Jerk
M220 S100 ;Reset Feedrate
M221 S100 ;Reset Flowrate

G28 ;Home
M420 S1 Z2 ;Enable ABL using saved Mesh and Fade Height

G92 E0 ;Reset Extruder
G1 Z2.0 F3000 ;Move Z Axis up
G1 X10.1 Y20 Z0.28 F5000.0 ;Move to start position
G1 X10.1 Y200.0 Z0.28 F1500.0 E15 ;Draw the first line
G1 X10.4 Y200.0 Z0.28 F5000.0 ;Move to side a little
G1 X10.4 Y20 Z0.28 F1500.0 E30 ;Draw the second line
G92 E0 ;Reset Extruder
G1 Z2.0 F3000 ;Move Z Axis up

G92 E0
G92 E0
G1 F1500 E-6.5
;LAYER_COUNT:157
;LAYER:0
M107
G0 F6000 X143.076 Y123.636 Z0.2
;TYPE:SKIRT
G1 F1500 E0
G1 F1200 X144.651 Y122.162 E0.07175
G1 X146.523 Y121.05 E0.14417
G1 X148.71 Y120.612 E0.21835
G1 X205.21 Y120.612 E2.09755
G1 X207.106 Y121.078 E2.16249
G1 X209.133 Y122.131 E2.23846
G1 X210.607 Y123.706 E2.31021
G1 X211.719 Y125.578 E2.38263
G1 X212.157 Y127.765 E2.45681
G1 X212.157 Y171.065 E3.89697
G1 X211.691 Y172.961 E3.96191
G1 X210.638 Y174.988 E4.03788
G1 X209.063 Y176.462 E4.10963
G1 X207.191 Y177.574 E4.18205
G1 X205.004 Y178.012 E4.25624
G1 X148.504 Y178.012 E6.13543
G1 X146.608 Y177.546 E6.20037
G1 X144.581 Y176.493 E6.27634
G1 X143.107 Y174.918 E6.34809
G1 X141.995 Y173.046 E6.42051
G1 X141.557 Y170.859 E6.49469
G1 X141.557 Y127.559 E7.93486
G1 X142.023 Y125.663 E7.9998
G1 X143.076 Y123.636 E8.07577
G0 F6000 X143.399 Y123.881
G1 F1200 X144.892 Y122.484 E8.14378
G1 X146.669 Y121.428 E8.21253
G1 X148.748 Y121.012 E8.28305
G1 X205.164 Y121.012 E10.15945
G1 X206.963 Y121.454 E10.22106
G1 X208.888 Y122.454 E10.29321
G1 X210.285 Y123.947 E10.36122
G1 X211.341 Y125.724 E10.42997
G1 X211.757 Y127.803 E10.50049
G1 X211.757 Y171.019 E11.93786
G1 X211.315 Y172.818 E11.99947
G1 X210.315 Y174.743 E12.07162
G1 X208.822 Y176.14 E12.13963
G1 X207.045 Y177.196 E12.20838
G1 X204.966 Y177.612 E12.2789
G1 X148.55 Y177.612 E14.1553
G1 X146.751 Y177.17 E14.21692
G1 X144.826 Y176.17 E14.28907
G1 X143.429 Y174.677 E14.35707
G1 X142.373 Y172.9 E14.42582
G1 X141.957 Y170.821 E14.49634
G1 X141.957 Y127.605 E15.93371
G1 X142.399 Y125.806 E15.99533
G1 X143.399 Y123.881 E16.06748
G0 F6000 X143.722 Y124.126
G1 F1200 X145.133 Y122.806 E16.13174
G1 X146.815 Y121.807 E16.19681
G1 X148.787 Y121.412 E16.2637
G1 X205.117 Y121.412 E18.13724
G1 X206.821 Y121.831 E18.19561
G1 X208.643 Y122.777 E18.26389
G1 X209.963 Y124.188 E18.32815
G1 X210.962 Y125.87 E18.39322
G1 X211.357 Y127.842 E18.46011
G1 X211.357 Y170.972 E19.89462
G1 X210.938 Y172.676 E19.95298
G1 X209.992 Y174.498 E20.02127
G1 X208.581 Y175.818 E20.08553
G1 X206.899 Y176.817 E20.1506
G1 X204.927 Y177.212 E20.21749
G1 X148.597 Y177.212 E22.09103
G1 X146.893 Y176.793 E22.1494
G1 X145.071 Y175.847 E22.21768
G1 X143.751 Y174.436 E22.28194
G1 X142.752 Y172.754 E22.34701
G1 X142.357 Y170.782 E22.4139
G1 X142.357 Y127.652 E23.84841
G1 X142.776 Y125.948 E23.90677
G1 X143.722 Y124.126 E23.97506
G0 F6000 X144.045 Y124.371
G1 F1200 X145.374 Y123.128 E24.03558
G1 X146.961 Y122.185 E24.09698
G1 X148.825 Y121.812 E24.1602
G1 X205.071 Y121.812 E26.03095
G1 X206.678 Y122.207 E26.08599
G1 X208.398 Y123.1 E26.15045
G1 X209.641 Y124.429 E26.21098
G1 X210.584 Y126.016 E26.27237
G1 X210.957 Y127.88 E26.3356
G1 X210.957 Y170.926 E27.76732
G1 X210.562 Y172.533 E27.82236
G1 X209.669 Y174.253 E27.88681
G1 X208.34 Y175.496 E27.94734
G1 X206.753 Y176.439 E28.00874
G1 X204.889 Y176.812 E28.07196
G1 X148.643 Y176.812 E29.94271
G1 X147.036 Y176.417 E29.99775
G1 X145.316 Y175.524 E30.06221
G1 X144.073 Y174.195 E30.12273
G1 X143.13 Y172.608 E30.18413
G1 X142.757 Y170.744 E30.24736
G1 X142.757 Y127.698 E31.67907
G1 X143.152 Y126.091 E31.73411
G1 X144.045 Y124.371 E31.79857
G0 F6000 X144.368 Y124.616
G1 F1200 X145.615 Y123.45 E31.85535
G1 X147.107 Y122.563 E31.91309
G1 X148.863 Y122.212 E31.97265
G1 X205.025 Y122.212 E33.8406
G1 X206.535 Y122.583 E33.89232
G1 X208.153 Y123.423 E33.95295
G1 X209.319 Y124.67 E34.00974
G1 X210.206 Y126.162 E34.06747
G1 X210.557 Y127.918 E34.12703
G1 X210.557 Y170.88 E35.55595
G1 X210.186 Y172.39 E35.60767
G1 X209.346 Y174.008 E35.6683
G1 X208.099 Y175.174 E35.72508
G1 X206.607 Y176.061 E35.78281
G1 X204.851 Y176.412 E35.84237
G1 X148.689 Y176.412 E37.71033
G1 X147.179 Y176.041 E37.76205
G1 X145.561 Y175.201 E37.82268
G1 X144.395 Y173.954 E37.87946
G1 X143.508 Y172.462 E37.93719
G1 X143.157 Y170.706 E37.99675
G1 X143.157 Y127.744 E39.42568
G1 X143.528 Y126.234 E39.47739
G1 X144.368 Y124.616 E39.53803
G0 F6000 X144.691 Y124.861
G1 F1200 X145.856 Y123.772 E39.59107
G1 X147.253 Y122.941 E39.64513
G1 X148.901 Y122.612 E39.70103
G1 X204.978 Y122.612 E41.56615
G1 X206.393 Y122.96 E41.61462
G1 X207.908 Y123.746 E41.67139
G1 X208.997 Y124.911 E41.72443
G1 X209.828 Y126.308 E41.77849
G1 X210.157 Y127.956 E41.83439
G1 X210.157 Y170.833 E43.26048
G1 X209.809 Y172.248 E43.30895
G1 X209.023 Y173.763 E43.36571
G1 X207.858 Y174.852 E43.41875
G1 X206.461 Y175.683 E43.47282
G1 X204.813 Y176.012 E43.52871
G1 X148.736 Y176.012 E45.39384
G1 X147.321 Y175.664 E45.44231
G1 X145.806 Y174.878 E45.49907
G1 X144.717 Y173.713 E45.55211
G1 X143.886 Y172.316 E45.60618
G1 X143.557 Y170.668 E45.66207
G1 X143.557 Y127.791 E47.08817
G1 X143.905 Y126.376 E47.13663
G1 X144.691 Y124.861 E47.1934
G0 F6000 X145.014 Y125.106
G1 F1200 X146.095 Y124.096 E47.2426
G1 X147.401 Y123.319 E47.29315
G1 X148.939 Y123.012 E47.34531
G1 X204.932 Y123.012 E49.20765
G1 X206.25 Y123.336 E49.25279
G1 X207.663 Y124.069 E49.30573
G1 X208.673 Y125.15 E49.35494
G1 X209.45 Y126.456 E49.40548
G1 X209.757 Y127.994 E49.45764
G1 X209.757 Y170.787 E50.88095
G1 X209.433 Y172.105 E50.92609
G1 X208.7 Y173.518 E50.97903
G1 X207.619 Y174.528 E51.02824
G1 X206.313 Y175.305 E51.07878
G1 X204.775 Y175.612 E51.13094
G1 X148.782 Y175.612 E52.99328
G1 X147.464 Y175.288 E53.03842
G1 X146.051 Y174.555 E53.09136
G1 X145.041 Y173.474 E53.14057
G1 X144.264 Y172.168 E53.19111
G1 X143.957 Y170.63 E53.24328
G1 X143.957 Y127.837 E54.66658
G1 X144.281 Y126.519 E54.71172
G1 X145.014 Y125.106 E54.76466
G0 F6000 X145.337 Y125.351
G1 F1200 X146.334 Y124.42 E54.81003
G1 X147.549 Y123.697 E54.85706
G1 X148.977 Y123.412 E54.90549
G1 X204.886 Y123.412 E56.76503
G1 X206.107 Y123.712 E56.80685
G1 X207.418 Y124.392 E56.85597
G1 X208.349 Y125.389 E56.90134
G1 X209.072 Y126.604 E56.94837
G1 X209.357 Y128.032 E56.9968
G1 X209.357 Y170.741 E58.41731
G1 X209.057 Y171.962 E58.45912
G1 X208.377 Y173.273 E58.50824
G1 X207.38 Y174.204 E58.55361
G1 X206.165 Y174.927 E58.60064
G1 X204.737 Y175.212 E58.64907
G1 X148.828 Y175.212 E60.50861
G1 X147.607 Y174.912 E60.55043
G1 X146.296 Y174.232 E60.59955
G1 X145.365 Y173.235 E60.64492
G1 X144.642 Y172.02 E60.69195
G1 X144.357 Y170.592 E60.74038
G1 X144.357 Y127.883 E62.16089
G1 X144.657 Y126.662 E62.2027
G1 X145.337 Y125.351 E62.25182
G0 F6000 X145.66 Y125.596
G1 F1200 X146.573 Y124.744 E62.29336
G1 X147.697 Y124.075 E62.33686
G1 X149.015 Y123.812 E62.38157
G1 X204.84 Y123.812 E64.23831
G1 X205.964 Y124.088 E64.27681
G1 X207.173 Y124.715 E64.32211
G1 X208.025 Y125.628 E64.36364
G1 X208.694 Y126.752 E64.40715
G1 X208.957 Y128.07 E64.45185
G1 X208.957 Y170.695 E65.86956
G1 X208.681 Y171.819 E65.90805
G1 X208.054 Y173.028 E65.95335
G1 X207.141 Y173.88 E65.99489
G1 X206.017 Y174.549 E66.03839
G1 X204.699 Y174.812 E66.08309
G1 X148.874 Y174.812 E67.93984
G1 X147.75 Y174.536 E67.97834
G1 X146.541 Y173.909 E68.02363
G1 X145.689 Y172.996 E68.06517
G1 X145.02 Y171.872 E68.10867
G1 X144.757 Y170.554 E68.15337
G1 X144.757 Y127.929 E69.57109
G1 X145.033 Y126.805 E69.60958
G1 X145.66 Y125.596 E69.65488
G0 F6000 X145.982 Y125.843
G1 F1200 X146.815 Y125.066 E69.69277
G1 X147.845 Y124.453 E69.73263
G1 X149.053 Y124.212 E69.7736
G1 X204.793 Y124.212 E71.62752
G1 X205.822 Y124.465 E71.66277
G1 X206.926 Y125.037 E71.70412
G1 X207.703 Y125.87 E71.74201
G1 X208.316 Y126.9 E71.78188
G1 X208.557 Y128.108 E71.82285
G1 X208.557 Y170.648 E73.23773
G1 X208.304 Y171.677 E73.27298
G1 X207.732 Y172.781 E73.31433
G1 X206.899 Y173.558 E73.35222
G1 X205.869 Y174.171 E73.39208
G1 X204.661 Y174.412 E73.43305
G1 X148.921 Y174.412 E75.28697
G1 X147.892 Y174.159 E75.32222
G1 X146.788 Y173.587 E75.36357
G1 X146.011 Y172.754 E75.40146
G1 X145.398 Y171.724 E75.44133
G1 X145.157 Y170.516 E75.4823
G1 X145.157 Y127.976 E76.89718
G1 X145.41 Y126.947 E76.93243
G1 X145.982 Y125.843 E76.97378
G0 F6000 X146.304 Y126.09
G1 F1200 X147.057 Y125.388 E77.00802
G1 X147.993 Y124.831 E77.04425
G1 X149.091 Y124.612 E77.08149
G1 X204.747 Y124.612 E78.93261
G1 X205.679 Y124.841 E78.96453
G1 X206.679 Y125.359 E79.00199
G1 X207.381 Y126.112 E79.03623
G1 X207.938 Y127.048 E79.07246
G1 X208.157 Y128.146 E79.1097
G1 X208.157 Y170.602 E80.52179
G1 X207.928 Y171.534 E80.55371
G1 X207.41 Y172.534 E80.59117
G1 X206.657 Y173.236 E80.62541
G1 X205.721 Y173.793 E80.66164
G1 X204.623 Y174.012 E80.69887
G1 X148.967 Y174.012 E82.55
G1 X148.035 Y173.783 E82.58192
G1 X147.035 Y173.265 E82.61938
G1 X146.333 Y172.512 E82.65362
G1 X145.776 Y171.576 E82.68985
G1 X145.557 Y170.478 E82.72708
G1 X145.557 Y128.022 E84.13918
G1 X145.786 Y127.09 E84.1711
G1 X146.304 Y126.09 E84.20856
G0 F6000 X146.626 Y126.337
G1 F1200 X147.299 Y125.71 E84.23915
G1 X148.141 Y125.209 E84.27174
G1 X149.129 Y125.012 E84.30524
G1 X204.701 Y125.012 E86.15358
G1 X205.536 Y125.217 E86.18217
G1 X206.432 Y125.681 E86.21573
G1 X207.059 Y126.354 E86.24633
G1 X207.56 Y127.196 E86.27891
G1 X207.757 Y128.184 E86.31242
G1 X207.757 Y170.556 E87.72172
G1 X207.552 Y171.391 E87.75032
G1 X207.088 Y172.287 E87.78388
G1 X206.415 Y172.914 E87.81447
G1 X205.573 Y173.415 E87.84706
G1 X204.585 Y173.612 E87.88057
G1 X149.013 Y173.612 E89.7289
G1 X148.178 Y173.407 E89.75749
G1 X147.282 Y172.943 E89.79105
G1 X146.655 Y172.27 E89.82165
G1 X146.154 Y171.428 E89.85424
G1 X145.957 Y170.44 E89.88774
G1 X145.957 Y128.068 E91.29704
G1 X146.162 Y127.233 E91.32564
G1 X146.626 Y126.337 E91.3592
G0 F6000 X146.948 Y126.584
G1 F1200 X147.541 Y126.032 E91.38614
G1 X148.289 Y125.587 E91.41509
G1 X149.167 Y125.412 E91.44487
G1 X204.655 Y125.412 E93.29041
G1 X205.393 Y125.593 E93.31568
G1 X206.185 Y126.003 E93.34534
G1 X206.737 Y126.596 E93.37229
G1 X207.182 Y127.344 E93.40124
G1 X207.357 Y128.222 E93.43101
G1 X207.357 Y170.51 E94.83752
G1 X207.176 Y171.248 E94.86279
G1 X206.766 Y172.04 E94.89246
G1 X206.173 Y172.592 E94.9194
G1 X205.425 Y173.037 E94.94835
G1 X204.547 Y173.212 E94.97813
G1 X149.059 Y173.212 E96.82366
G1 X148.321 Y173.031 E96.84894
G1 X147.529 Y172.621 E96.8786
G1 X146.977 Y172.028 E96.90555
G1 X146.532 Y171.28 E96.93449
G1 X146.357 Y170.402 E96.96427
G1 X146.357 Y128.114 E98.37078
G1 X146.538 Y127.376 E98.39605
G1 X146.948 Y126.584 E98.42571
G0 F6000 X147.271 Y126.829
G1 F1200 X147.78 Y126.356 E98.44882
G1 X148.437 Y125.965 E98.47425
G1 X149.205 Y125.812 E98.5003
G1 X204.605 Y125.812 E100.34291
G1 X205.254 Y125.971 E100.36513
G1 X205.94 Y126.326 E100.39082
G1 X206.413 Y126.835 E100.41393
G1 X206.804 Y127.492 E100.43936
G1 X206.957 Y128.26 E100.46541
G1 X206.957 Y170.46 E101.86899
G1 X206.798 Y171.109 E101.89121
G1 X206.443 Y171.795 E101.9169
G1 X205.934 Y172.268 E101.94001
G1 X205.277 Y172.659 E101.96544
G1 X204.509 Y172.812 E101.99149
G1 X149.109 Y172.812 E103.8341
G1 X148.46 Y172.653 E103.85632
G1 X147.774 Y172.298 E103.88201
G1 X147.301 Y171.789 E103.90512
G1 X146.91 Y171.132 E103.93055
G1 X146.757 Y170.364 E103.9566
G1 X146.757 Y128.164 E105.36018
G1 X146.916 Y127.515 E105.3824
G1 X147.271 Y126.829 E105.40809
G0 F6000 X147.594 Y127.074
G1 F1200 X148.019 Y126.68 E105.42737
G1 X148.585 Y126.343 E105.44928
G1 X149.243 Y126.212 E105.47159
G1 X204.555 Y126.212 E107.31127
G1 X205.115 Y126.349 E107.33045
G1 X205.695 Y126.649 E107.35217
G1 X206.089 Y127.074 E107.37144
G1 X206.426 Y127.64 E107.39335
G1 X206.557 Y128.298 E107.41567
G1 X206.557 Y170.41 E108.81632
G1 X206.42 Y170.97 E108.83549
G1 X206.12 Y171.55 E108.85721
G1 X205.695 Y171.944 E108.87649
G1 X205.129 Y172.281 E108.8984
G1 X204.471 Y172.412 E108.92071
G1 X149.159 Y172.412 E110.7604
G1 X148.599 Y172.275 E110.77957
G1 X148.019 Y171.975 E110.80129
G1 X147.625 Y171.55 E110.82057
G1 X147.288 Y170.984 E110.84247
G1 X147.157 Y170.326 E110.86479
G1 X147.157 Y128.214 E112.26544
G1 X147.294 Y127.654 E112.28462
G1 X147.594 Y127.074 E112.30633
G0 F6000 X147.917 Y127.32
G1 F1200 X148.258 Y127.004 E112.3218
G1 X148.733 Y126.721 E112.34019
G1 X149.281 Y126.612 E112.35877
G1 X204.505 Y126.612 E114.19553
G1 X204.976 Y126.727 E114.21165
G1 X205.449 Y126.972 E114.22937
G1 X205.765 Y127.313 E114.24483
G1 X206.048 Y127.788 E114.26322
G1 X206.157 Y128.336 E114.28181
G1 X206.157 Y170.36 E115.67953
G1 X206.042 Y170.831 E115.69566
G1 X205.797 Y171.304 E115.71337
G1 X205.456 Y171.62 E115.72884
G1 X204.981 Y171.903 E115.74723
G1 X204.433 Y172.012 E115.76581
G1 X149.209 Y172.012 E117.60257
G1 X148.738 Y171.897 E117.61869
G1 X148.265 Y171.652 E117.63641
G1 X147.949 Y171.311 E117.65187
G1 X147.666 Y170.836 E117.67026
G1 X147.557 Y170.288 E117.68885
G1 X147.557 Y128.264 E119.08657
G1 X147.672 Y127.793 E119.1027
G1 X147.917 Y127.32 E119.12041
G0 F6000 X148.24 Y127.566
G1 F1200 X148.497 Y127.328 E119.13206
G1 X148.881 Y127.099 E119.14694
G1 X149.319 Y127.012 E119.16179
G1 X204.455 Y127.012 E120.99562
G1 X204.837 Y127.105 E121.0087
G1 X205.203 Y127.295 E121.02241
G1 X205.441 Y127.552 E121.03406
G1 X205.67 Y127.936 E121.04893
G1 X205.757 Y128.374 E121.06378
G1 X205.757 Y170.31 E122.45858
G1 X205.664 Y170.692 E122.47166
G1 X205.474 Y171.058 E122.48537
G1 X205.217 Y171.296 E122.49702
G1 X204.833 Y171.525 E122.51189
G1 X204.395 Y171.612 E122.52675
G1 X149.259 Y171.612 E124.36058
G1 X148.877 Y171.519 E124.37365
G1 X148.511 Y171.329 E124.38737
G1 X148.273 Y171.072 E124.39902
G1 X148.044 Y170.688 E124.41389
G1 X147.957 Y170.25 E124.42874
G1 X147.957 Y128.314 E125.82354
G1 X148.05 Y127.932 E125.83662
G1 X148.24 Y127.566 E125.85033
G0 F6000 X148.564 Y127.811
G1 F1200 X148.702 Y127.672 E125.85685
G1 X149.029 Y127.477 E125.86951
G1 X149.357 Y127.412 E125.88063
G1 X204.406 Y127.412 E127.71157
G1 X204.695 Y127.482 E127.72146
G1 X204.958 Y127.619 E127.73132
G1 X205.097 Y127.757 E127.73784
G1 X205.292 Y128.084 E127.7505
G1 X205.357 Y128.412 E127.76162
G1 X205.357 Y170.261 E129.15352
G1 X205.287 Y170.55 E129.16341
G1 X205.15 Y170.813 E129.17328
G1 X205.012 Y170.952 E129.17979
G1 X204.685 Y171.147 E129.19246
G1 X204.357 Y171.212 E129.20358
G1 X149.308 Y171.212 E131.03451
G1 X149.019 Y171.142 E131.0444
G1 X148.756 Y171.005 E131.05427
G1 X148.617 Y170.867 E131.06078
G1 X148.422 Y170.54 E131.07345
G1 X148.357 Y170.212 E131.08457
G1 X148.357 Y128.363 E132.47647
G1 X148.427 Y128.074 E132.48636
G1 X148.564 Y127.811 E132.49622
G0 F6000 X148.907 Y128.016
G1 F1200 X149.177 Y127.855 E132.50668
G1 X149.357 Y127.812 E132.51283
G1 X204.357 Y127.812 E134.34214
G1 X204.601 Y127.871 E134.35049
G1 X204.753 Y127.962 E134.35638
G1 X204.914 Y128.232 E134.36684
G1 X204.957 Y128.412 E134.37299
G1 X204.957 Y170.212 E135.76327
G1 X204.898 Y170.456 E135.77162
G1 X204.807 Y170.608 E135.77751
G1 X204.537 Y170.769 E135.78796
G1 X204.357 Y170.812 E135.79412
G1 X149.357 Y170.812 E137.62343
G1 X149.113 Y170.753 E137.63178
G1 X148.961 Y170.662 E137.63767
G1 X148.8 Y170.392 E137.64812
G1 X148.757 Y170.212 E137.65428
G1 X148.757 Y128.412 E139.04455
G1 X148.816 Y128.168 E139.0529
G1 X148.907 Y128.016 E139.0588
G0 F6000 X149.196 Y128.293
G1 F1200 X149.357 Y128.212 E139.06479
G1 X204.357 Y128.212 E140.8941
G1 X204.476 Y128.251 E140.89826
G1 X204.557 Y128.412 E140.90426
G1 X204.557 Y170.212 E142.29453
G1 X204.518 Y170.331 E142.2987
G1 X204.357 Y170.412 E142.30469
G1 X149.357 Y170.412 E144.134
G1 X149.238 Y170.373 E144.13816
