;FLAVOR:Marlin
;TIME:3519
;Filament used: 3.14379m
;Layer height: 0.2
;MINX:160.833
;MINY:150.929
;MINZ:0.2
;MAXX:226.433
;MAXY:204.529
;MAXZ:28.4
;Generated with Cura_SteamEngine 5.3.0
M140 S60
M105
M190 S60
M104 S200
M105
M109 S200
M82 ;absolute extrusion mode
M201 X500.00 Y500.00 Z100.00 E5000.00 ;Setup machine max acceleration
M203 X500.00 Y500.00 Z10.00 E50.00 ;Setup machine max feedrate
M204 P500.00 R1000.00 T500.00 ;Setup Print/Retract/Travel acceleration
M205 X8.00 Y8.00 Z0.40 E5.00 ;Setup Jerk
M220 S100 ;Reset Feedrate
M221 S100 ;Reset Flowrate

G28 ;Home
M420 S1 Z2 ;Enable ABL using saved Mesh and Fade Height

G92 E0 ;Reset Extruder
G1 Z2.0 F3000 ;Move Z Axis up
G1 X10.1 Y20 Z0.28 F5000.0 ;Move to start position
G1 X10.1 Y200.0 Z0.28 F1500.0 E15 ;Draw the first line
G1 X10.4 Y200.0 Z0.28 F5000.0 ;Move to side a little
G1 X10.4 Y20 Z0.28 F1500.0 E30 ;Draw the second line
G92 E0 ;Reset Extruder
G1 Z2.0 F3000 ;Move Z Axis up

G92 E0
G92 E0
G1 F1500 E-6.5
;LAYER_COUNT:143
;LAYER:0
M107
G0 F6000 X162.352 Y153.953 Z0.2
;TYPE:SKIRT
G1 F1500 E0
G1 F1200 X163.927 Y152.479 E0.07175
G1 X165.799 Y151.367 E0.14417
G1 X167.986 Y150.929 E0.21835
G1 X219.486 Y150.929 E1.93125
G1 X221.382 Y151.395 E1.99619
G1 X223.409 Y152.448 E2.07216
G1 X224.883 Y154.023 E2.14391
G1 X225.995 Y155.895 E2.21633
G1 X226.433 Y158.082 E2.29051
G1 X226.433 Y197.582 E3.60428
G1 X225.967 Y199.478 E3.66922
G1 X224.914 Y201.505 E3.7452
G1 X223.339 Y202.979 E3.81694
G1 X221.467 Y204.091 E3.88936
G1 X219.28 Y204.529 E3.96355
G1 X167.78 Y204.529 E5.67644
G1 X165.884 Y204.063 E5.74138
G1 X163.857 Y203.01 E5.81735
G1 X162.383 Y201.435 E5.8891
G1 X161.271 Y199.563 E5.96152
G1 X160.833 Y197.376 E6.03571
G1 X160.833 Y157.876 E7.34948
G1 X161.299 Y155.98 E7.41442
G1 X162.352 Y153.953 E7.49039
G0 F6000 X162.675 Y154.198
G1 F1200 X164.168 Y152.801 E7.5584
G1 X165.945 Y151.745 E7.62715
G1 X168.024 Y151.329 E7.69767
G1 X219.44 Y151.329 E9.40777
G1 X221.239 Y151.771 E9.46938
G1 X223.164 Y152.771 E9.54153
G1 X224.561 Y154.264 E9.60954
G1 X225.617 Y156.041 E9.67829
G1 X226.033 Y158.12 E9.74881
G1 X226.033 Y197.536 E11.05979
G1 X225.591 Y199.335 E11.12141
G1 X224.591 Y201.26 E11.19356
G1 X223.098 Y202.657 E11.26156
G1 X221.321 Y203.713 E11.33031
G1 X219.242 Y204.129 E11.40083
G1 X167.826 Y204.129 E13.11093
G1 X166.027 Y203.687 E13.17255
G1 X164.102 Y202.687 E13.2447
G1 X162.705 Y201.194 E13.3127
G1 X161.649 Y199.417 E13.38146
G1 X161.233 Y197.338 E13.45197
G1 X161.233 Y157.922 E14.76296
G1 X161.675 Y156.123 E14.82457
G1 X162.675 Y154.198 E14.89672
G0 F6000 X162.998 Y154.443
G1 F1200 X164.409 Y153.123 E14.96098
G1 X166.091 Y152.124 E15.02605
G1 X168.063 Y151.729 E15.09294
G1 X219.393 Y151.729 E16.80019
G1 X221.097 Y152.148 E16.85855
G1 X222.919 Y153.094 E16.92683
G1 X224.239 Y154.505 E16.9911
G1 X225.238 Y156.187 E17.05616
G1 X225.633 Y158.159 E17.12305
G1 X225.633 Y197.489 E18.43118
G1 X225.214 Y199.193 E18.48954
G1 X224.268 Y201.015 E18.55782
G1 X222.857 Y202.335 E18.62208
G1 X221.175 Y203.334 E18.68715
G1 X219.203 Y203.729 E18.75404
G1 X167.873 Y203.729 E20.46129
G1 X166.169 Y203.31 E20.51965
G1 X164.347 Y202.364 E20.58793
G1 X163.027 Y200.953 E20.6522
G1 X162.028 Y199.271 E20.71726
G1 X161.633 Y197.299 E20.78415
G1 X161.633 Y157.969 E22.09228
G1 X162.052 Y156.265 E22.15064
G1 X162.998 Y154.443 E22.21892
G0 F6000 X163.321 Y154.688
G1 F1200 X164.65 Y153.445 E22.27944
G1 X166.237 Y152.502 E22.34084
G1 X168.101 Y152.129 E22.40407
G1 X219.347 Y152.129 E24.10852
G1 X220.954 Y152.524 E24.16356
G1 X222.674 Y153.417 E24.22802
G1 X223.917 Y154.746 E24.28854
G1 X224.86 Y156.333 E24.34994
G1 X225.233 Y158.197 E24.41316
G1 X225.233 Y197.443 E25.71849
G1 X224.838 Y199.05 E25.77353
G1 X223.945 Y200.77 E25.83799
G1 X222.616 Y202.013 E25.89851
G1 X221.029 Y202.956 E25.95991
G1 X219.165 Y203.329 E26.02314
G1 X167.919 Y203.329 E27.72759
G1 X166.312 Y202.934 E27.78263
G1 X164.592 Y202.041 E27.84709
G1 X163.349 Y200.712 E27.90761
G1 X162.406 Y199.125 E27.96901
G1 X162.033 Y197.261 E28.03223
G1 X162.033 Y158.015 E29.33756
G1 X162.428 Y156.408 E29.3926
G1 X163.321 Y154.688 E29.45706
G0 F6000 X163.644 Y154.933
G1 F1200 X164.891 Y153.767 E29.51384
G1 X166.383 Y152.88 E29.57157
G1 X168.139 Y152.529 E29.63113
G1 X219.301 Y152.529 E31.33279
G1 X220.811 Y152.9 E31.3845
G1 X222.429 Y153.74 E31.44514
G1 X223.595 Y154.987 E31.50192
G1 X224.482 Y156.479 E31.55965
G1 X224.833 Y158.235 E31.61921
G1 X224.833 Y197.397 E32.92175
G1 X224.462 Y198.907 E32.97346
G1 X223.622 Y200.525 E33.0341
G1 X222.375 Y201.691 E33.09088
G1 X220.883 Y202.578 E33.14861
G1 X219.127 Y202.929 E33.20817
G1 X167.965 Y202.929 E34.90983
G1 X166.455 Y202.558 E34.96154
G1 X164.837 Y201.718 E35.02218
G1 X163.671 Y200.471 E35.07896
G1 X162.784 Y198.979 E35.13669
G1 X162.433 Y197.223 E35.19625
G1 X162.433 Y158.061 E36.49878
G1 X162.804 Y156.551 E36.5505
G1 X163.644 Y154.933 E36.61114
G0 F6000 X163.967 Y155.178
G1 F1200 X165.132 Y154.089 E36.66418
G1 X166.529 Y153.258 E36.71824
G1 X168.177 Y152.929 E36.77413
G1 X219.254 Y152.929 E38.47296
G1 X220.669 Y153.277 E38.52143
G1 X222.184 Y154.063 E38.57819
G1 X223.273 Y155.228 E38.63124
G1 X224.104 Y156.625 E38.6853
G1 X224.433 Y158.273 E38.74119
G1 X224.433 Y197.35 E40.0409
G1 X224.085 Y198.765 E40.08937
G1 X223.299 Y200.28 E40.14613
G1 X222.134 Y201.369 E40.19917
G1 X220.737 Y202.2 E40.25324
G1 X219.089 Y202.529 E40.30913
G1 X168.012 Y202.529 E42.00796
G1 X166.597 Y202.181 E42.05642
G1 X165.082 Y201.395 E42.11319
G1 X163.993 Y200.23 E42.16623
G1 X163.162 Y198.833 E42.2203
G1 X162.833 Y197.185 E42.27619
G1 X162.833 Y158.108 E43.5759
G1 X163.181 Y156.693 E43.62436
G1 X163.967 Y155.178 E43.68113
G0 F6000 X164.29 Y155.423
G1 F1200 X165.371 Y154.413 E43.73033
G1 X166.677 Y153.636 E43.78088
G1 X168.215 Y153.329 E43.83304
G1 X219.208 Y153.329 E45.52908
G1 X220.526 Y153.653 E45.57422
G1 X221.939 Y154.386 E45.62716
G1 X222.949 Y155.467 E45.67637
G1 X223.726 Y156.773 E45.72691
G1 X224.033 Y158.311 E45.77907
G1 X224.033 Y197.304 E47.07599
G1 X223.709 Y198.622 E47.12113
G1 X222.976 Y200.035 E47.17407
G1 X221.895 Y201.045 E47.22328
G1 X220.589 Y201.822 E47.27382
G1 X219.051 Y202.129 E47.32598
G1 X168.058 Y202.129 E49.02202
G1 X166.74 Y201.805 E49.06716
G1 X165.327 Y201.072 E49.1201
G1 X164.317 Y199.991 E49.16931
G1 X163.54 Y198.685 E49.21985
G1 X163.233 Y197.147 E49.27202
G1 X163.233 Y158.154 E50.56893
G1 X163.557 Y156.836 E50.61407
G1 X164.29 Y155.423 E50.66702
G0 F6000 X164.613 Y155.668
G1 F1200 X165.61 Y154.737 E50.71239
G1 X166.825 Y154.014 E50.75941
G1 X168.253 Y153.729 E50.80784
G1 X219.162 Y153.729 E52.50108
G1 X220.383 Y154.029 E52.5429
G1 X221.694 Y154.709 E52.59202
G1 X222.625 Y155.706 E52.63739
G1 X223.348 Y156.921 E52.68442
G1 X223.633 Y158.349 E52.73285
G1 X223.633 Y197.258 E54.02697
G1 X223.333 Y198.479 E54.06879
G1 X222.653 Y199.79 E54.11791
G1 X221.656 Y200.721 E54.16328
G1 X220.441 Y201.444 E54.2103
G1 X219.013 Y201.729 E54.25873
G1 X168.104 Y201.729 E55.95197
G1 X166.883 Y201.429 E55.99379
G1 X165.572 Y200.749 E56.04291
G1 X164.641 Y199.752 E56.08828
G1 X163.918 Y198.537 E56.13531
G1 X163.633 Y197.109 E56.18374
G1 X163.633 Y158.2 E57.47786
G1 X163.933 Y156.979 E57.51968
G1 X164.613 Y155.668 E57.5688
G0 F6000 X164.936 Y155.913
G1 F1200 X165.849 Y155.061 E57.61033
G1 X166.973 Y154.392 E57.65384
G1 X168.291 Y154.129 E57.69854
G1 X219.116 Y154.129 E59.38899
G1 X220.24 Y154.405 E59.42748
G1 X221.449 Y155.032 E59.47278
G1 X222.301 Y155.945 E59.51431
G1 X222.97 Y157.069 E59.55782
G1 X223.233 Y158.387 E59.60252
G1 X223.233 Y197.212 E60.89384
G1 X222.957 Y198.336 E60.93234
G1 X222.33 Y199.545 E60.97764
G1 X221.417 Y200.397 E61.01917
G1 X220.293 Y201.066 E61.06268
G1 X218.975 Y201.329 E61.10738
G1 X168.15 Y201.329 E62.79782
G1 X167.026 Y201.053 E62.83632
G1 X165.817 Y200.426 E62.88162
G1 X164.965 Y199.513 E62.92315
G1 X164.296 Y198.389 E62.96666
G1 X164.033 Y197.071 E63.01136
G1 X164.033 Y158.246 E64.30268
G1 X164.309 Y157.122 E64.34118
G1 X164.936 Y155.913 E64.38647
G0 F6000 X165.258 Y156.16
G1 F1200 X166.091 Y155.383 E64.42436
G1 X167.121 Y154.77 E64.46423
G1 X168.329 Y154.529 E64.5052
G1 X219.069 Y154.529 E66.19282
G1 X220.098 Y154.782 E66.22806
G1 X221.202 Y155.354 E66.26942
G1 X221.979 Y156.187 E66.3073
G1 X222.592 Y157.217 E66.34717
G1 X222.833 Y158.425 E66.38814
G1 X222.833 Y197.165 E67.67664
G1 X222.58 Y198.194 E67.71188
G1 X222.008 Y199.298 E67.75324
G1 X221.175 Y200.075 E67.79112
G1 X220.145 Y200.688 E67.83099
G1 X218.937 Y200.929 E67.87196
G1 X168.197 Y200.929 E69.55958
G1 X167.168 Y200.676 E69.59482
G1 X166.064 Y200.104 E69.63618
G1 X165.287 Y199.271 E69.67407
G1 X164.674 Y198.241 E69.71393
G1 X164.433 Y197.033 E69.7549
G1 X164.433 Y158.293 E71.0434
G1 X164.686 Y157.264 E71.07864
G1 X165.258 Y156.16 E71.12
G0 F6000 X165.58 Y156.407
G1 F1200 X166.333 Y155.705 E71.15424
G1 X167.269 Y155.148 E71.19047
G1 X168.367 Y154.929 E71.2277
G1 X219.023 Y154.929 E72.91253
G1 X219.955 Y155.158 E72.94445
G1 X220.955 Y155.676 E72.98191
G1 X221.657 Y156.429 E73.01615
G1 X222.214 Y157.365 E73.05238
G1 X222.433 Y158.463 E73.08961
G1 X222.433 Y197.119 E74.37532
G1 X222.204 Y198.051 E74.40724
G1 X221.686 Y199.051 E74.4447
G1 X220.933 Y199.753 E74.47894
G1 X219.997 Y200.31 E74.51516
G1 X218.899 Y200.529 E74.5524
G1 X168.243 Y200.529 E76.23723
G1 X167.311 Y200.3 E76.26915
G1 X166.311 Y199.782 E76.30661
G1 X165.609 Y199.029 E76.34085
G1 X165.052 Y198.093 E76.37707
G1 X164.833 Y196.995 E76.41431
G1 X164.833 Y158.339 E77.70002
G1 X165.062 Y157.407 E77.73194
G1 X165.58 Y156.407 E77.76939
G0 F6000 X165.902 Y156.654
G1 F1200 X166.575 Y156.027 E77.79999
G1 X167.417 Y155.526 E77.83257
G1 X168.405 Y155.329 E77.86608
G1 X218.977 Y155.329 E79.54811
G1 X219.812 Y155.534 E79.57671
G1 X220.708 Y155.998 E79.61027
G1 X221.335 Y156.671 E79.64086
G1 X221.836 Y157.513 E79.67345
G1 X222.033 Y158.501 E79.70696
G1 X222.033 Y197.073 E80.98987
G1 X221.828 Y197.908 E81.01847
G1 X221.364 Y198.804 E81.05203
G1 X220.691 Y199.431 E81.08262
G1 X219.849 Y199.932 E81.11521
G1 X218.861 Y200.129 E81.14871
G1 X168.289 Y200.129 E82.83075
G1 X167.454 Y199.924 E82.85934
G1 X166.558 Y199.46 E82.8929
G1 X165.931 Y198.787 E82.9235
G1 X165.43 Y197.945 E82.95608
G1 X165.233 Y196.957 E82.98959
G1 X165.233 Y158.385 E84.2725
G1 X165.438 Y157.55 E84.3011
G1 X165.902 Y156.654 E84.33466
G0 F6000 X166.224 Y156.901
G1 F1200 X166.817 Y156.349 E84.3616
G1 X167.565 Y155.904 E84.39055
G1 X168.443 Y155.729 E84.42033
G1 X218.931 Y155.729 E86.09957
G1 X219.669 Y155.91 E86.12484
G1 X220.461 Y156.32 E86.1545
G1 X221.013 Y156.913 E86.18145
G1 X221.458 Y157.661 E86.2104
G1 X221.633 Y158.539 E86.24017
G1 X221.633 Y197.027 E87.52029
G1 X221.452 Y197.765 E87.54556
G1 X221.042 Y198.557 E87.57523
G1 X220.449 Y199.109 E87.60217
G1 X219.701 Y199.554 E87.63112
G1 X218.823 Y199.729 E87.6609
G1 X168.335 Y199.729 E89.34013
G1 X167.597 Y199.548 E89.36541
G1 X166.805 Y199.138 E89.39507
G1 X166.253 Y198.545 E89.42202
G1 X165.808 Y197.797 E89.45096
G1 X165.633 Y196.919 E89.48074
G1 X165.633 Y158.431 E90.76086
G1 X165.814 Y157.693 E90.78613
G1 X166.224 Y156.901 E90.81579
G0 F6000 X166.547 Y157.146
G1 F1200 X167.056 Y156.673 E90.8389
G1 X167.713 Y156.282 E90.86433
G1 X168.481 Y156.129 E90.89038
G1 X218.881 Y156.129 E92.56669
G1 X219.53 Y156.288 E92.58891
G1 X220.216 Y156.643 E92.6146
G1 X220.689 Y157.152 E92.63771
G1 X221.08 Y157.809 E92.66314
G1 X221.233 Y158.577 E92.68919
G1 X221.233 Y196.977 E93.96638
G1 X221.074 Y197.626 E93.9886
G1 X220.719 Y198.312 E94.01429
G1 X220.21 Y198.785 E94.0374
G1 X219.553 Y199.176 E94.06283
G1 X218.785 Y199.329 E94.08888
G1 X168.385 Y199.329 E95.76519
G1 X167.736 Y199.17 E95.78741
G1 X167.05 Y198.815 E95.8131
G1 X166.577 Y198.306 E95.83621
G1 X166.186 Y197.649 E95.86164
G1 X166.033 Y196.881 E95.88769
G1 X166.033 Y158.481 E97.16488
G1 X166.192 Y157.832 E97.1871
G1 X166.547 Y157.146 E97.21279
G0 F6000 X166.87 Y157.391
G1 F1200 X167.295 Y156.997 E97.23207
G1 X167.861 Y156.66 E97.25398
G1 X168.519 Y156.529 E97.27629
G1 X218.831 Y156.529 E98.94968
G1 X219.391 Y156.666 E98.96885
G1 X219.971 Y156.966 E98.99057
G1 X220.365 Y157.391 E99.00985
G1 X220.702 Y157.957 E99.03176
G1 X220.833 Y158.615 E99.05407
G1 X220.833 Y196.927 E100.32833
G1 X220.696 Y197.487 E100.34751
G1 X220.396 Y198.067 E100.36923
G1 X219.971 Y198.461 E100.3885
G1 X219.405 Y198.798 E100.41041
G1 X218.747 Y198.929 E100.43273
G1 X168.435 Y198.929 E102.10611
G1 X167.875 Y198.792 E102.12528
G1 X167.295 Y198.492 E102.147
G1 X166.901 Y198.067 E102.16628
G1 X166.564 Y197.501 E102.18819
G1 X166.433 Y196.843 E102.2105
G1 X166.433 Y158.531 E103.48476
G1 X166.57 Y157.971 E103.50394
G1 X166.87 Y157.391 E103.52566
G0 F6000 X167.193 Y157.637
G1 F1200 X167.534 Y157.321 E103.54112
G1 X168.009 Y157.038 E103.55951
G1 X168.557 Y156.929 E103.57809
G1 X218.781 Y156.929 E105.24855
G1 X219.252 Y157.044 E105.26468
G1 X219.725 Y157.289 E105.28239
G1 X220.041 Y157.63 E105.29786
G1 X220.324 Y158.105 E105.31625
G1 X220.433 Y158.653 E105.33483
G1 X220.433 Y196.877 E106.60617
G1 X220.318 Y197.348 E106.62229
G1 X220.073 Y197.821 E106.64001
G1 X219.732 Y198.137 E106.65547
G1 X219.257 Y198.42 E106.67386
G1 X218.709 Y198.529 E106.69245
G1 X168.485 Y198.529 E108.3629
G1 X168.014 Y198.414 E108.37903
G1 X167.541 Y198.169 E108.39675
G1 X167.225 Y197.828 E108.41221
G1 X166.942 Y197.353 E108.4306
G1 X166.833 Y196.805 E108.44918
G1 X166.833 Y158.581 E109.72052
G1 X166.948 Y158.11 E109.73664
G1 X167.193 Y157.637 E109.75436
G0 F6000 X167.516 Y157.883
G1 F1200 X167.773 Y157.645 E109.76601
G1 X168.157 Y157.416 E109.78088
G1 X168.595 Y157.329 E109.79573
G1 X218.731 Y157.329 E111.46326
G1 X219.113 Y157.422 E111.47634
G1 X219.479 Y157.612 E111.49006
G1 X219.717 Y157.869 E111.50171
G1 X219.946 Y158.253 E111.51658
G1 X220.033 Y158.691 E111.53143
G1 X220.033 Y196.827 E112.79984
G1 X219.94 Y197.209 E112.81291
G1 X219.75 Y197.575 E112.82663
G1 X219.493 Y197.813 E112.83828
G1 X219.109 Y198.042 E112.85315
G1 X218.671 Y198.129 E112.868
G1 X168.535 Y198.129 E114.53553
G1 X168.153 Y198.036 E114.54861
G1 X167.787 Y197.846 E114.56233
G1 X167.549 Y197.589 E114.57398
G1 X167.32 Y197.205 E114.58885
G1 X167.233 Y196.767 E114.6037
G1 X167.233 Y158.631 E115.87211
G1 X167.326 Y158.249 E115.88518
G1 X167.516 Y157.883 E115.8989
G0 F6000 X167.84 Y158.128
G1 F1200 X167.978 Y157.989 E115.90541
G1 X168.305 Y157.794 E115.91808
G1 X168.633 Y157.729 E115.9292
G1 X218.682 Y157.729 E117.59384
G1 X218.971 Y157.799 E117.60373
G1 X219.234 Y157.936 E117.61359
G1 X219.373 Y158.074 E117.6201
G1 X219.568 Y158.401 E117.63277
G1 X219.633 Y158.729 E117.64389
G1 X219.633 Y196.778 E118.9094
G1 X219.563 Y197.067 E118.91929
G1 X219.426 Y197.33 E118.92916
G1 X219.288 Y197.469 E118.93567
G1 X218.961 Y197.664 E118.94833
G1 X218.633 Y197.729 E118.95946
G1 X168.584 Y197.729 E120.62409
G1 X168.295 Y197.659 E120.63398
G1 X168.032 Y197.522 E120.64385
G1 X167.893 Y197.384 E120.65036
G1 X167.698 Y197.057 E120.66302
G1 X167.633 Y196.729 E120.67414
G1 X167.633 Y158.68 E121.93966
G1 X167.703 Y158.391 E121.94955
G1 X167.84 Y158.128 E121.95941
G0 F6000 X168.183 Y158.333
G1 F1200 X168.453 Y158.172 E121.96987
G1 X168.633 Y158.129 E121.97602
G1 X218.633 Y158.129 E123.63903
G1 X218.877 Y158.188 E123.64738
G1 X219.029 Y158.279 E123.65327
G1 X219.19 Y158.549 E123.66373
G1 X219.233 Y158.729 E123.66988
G1 X219.233 Y196.729 E124.93377
G1 X219.174 Y196.973 E124.94212
G1 X219.083 Y197.125 E124.94801
G1 X218.813 Y197.286 E124.95846
G1 X218.633 Y197.329 E124.96462
G1 X168.633 Y197.329 E126.62763
G1 X168.389 Y197.27 E126.63598
G1 X168.237 Y197.179 E126.64187
G1 X168.076 Y196.909 E126.65232
G1 X168.033 Y196.729 E126.65848
G1 X168.033 Y158.729 E127.92236
G1 X168.092 Y158.485 E127.93071
G1 X168.183 Y158.333 E127.93661
G0 F6000 X168.472 Y158.61
G1 F1200 X168.633 Y158.529 E127.9426
G1 X218.633 Y158.529 E129.60561
G1 X218.752 Y158.568 E129.60977
G1 X218.833 Y158.729 E129.61577
G1 X218.833 Y196.729 E130.87965
G1 X218.794 Y196.848 E130.88382
G1 X218.633 Y196.929 E130.88981
G1 X168.633 Y196.929 E132.55282
G1 X168.514 Y196.89 E132.55698
G1 X168.433 Y196.729 E132.56298
