;FLAVOR:Marlin
;TIME:3745
;Filament used: 2.83251m
;Layer height: 0.2
;MINX:143.873
;MINY:124.426
;MINZ:0.2
;MAXX:209.473
;MAXY:177.026
;MAXZ:28.4
;Generated with Cura_SteamEngine 5.3.0
M140 S60
M105
M190 S60
M104 S200
M105
M109 S200
M82 ;absolute extrusion mode
M201 X500.00 Y500.00 Z100.00 E5000.00 ;Setup machine max acceleration
M203 X500.00 Y500.00 Z10.00 E50.00 ;Setup machine max feedrate
M204 P500.00 R1000.00 T500.00 ;Setup Print/Retract/Travel acceleration
M205 X8.00 Y8.00 Z0.40 E5.00 ;Setup Jerk
M220 S100 ;Reset Feedrate
M221 S100 ;Reset Flowrate

G28 ;Home
M420 S1 Z2 ;Enable ABL using saved Mesh and Fade Height

G92 E0 ;Reset Extruder
G1 Z2.0 F3000 ;Move Z Axis up
G1 X10.1 Y20 Z0.28 F5000.0 ;Move to start position
G1 X10.1 Y200.0 Z0.28 F1500.0 E15 ;Draw the first line
G1 X10.4 Y200.0 Z0.28 F5000.0 ;Move to side a little
G1 X10.4 Y20 Z0.28 F1500.0 E30 ;Draw the second line
G92 E0 ;Reset Extruder
G1 Z2.0 F3000 ;Move Z Axis up

G92 E0
G92 E0
G1 F1500 E-6.5
;LAYER_COUNT:143
;LAYER:0
M107
G0 F6000 X145.392 Y127.45 Z0.2
;TYPE:SKIRT
G1 F1500 E0
G1 F1200 X146.967 Y125.976 E0.07175
G1 X148.839 Y124.864 E0.14417
G1 X151.026 Y124.426 E0.21835
G1 X202.526 Y124.426 E1.93125
G1 X204.422 Y124.892 E1.99619
G1 X206.449 Y125.945 E2.07216
G1 X207.923 Y127.52 E2.14391
G1 X209.035 Y129.392 E2.21633
G1 X209.473 Y131.579 E2.29051
G1 X209.473 Y170.079 E3.57102
G1 X209.007 Y171.975 E3.63596
G1 X207.954 Y174.002 E3.71194
G1 X206.379 Y175.476 E3.78368
G1 X204.507 Y176.588 E3.8561
G1 X202.32 Y177.026 E3.93029
G1 X150.82 Y177.026 E5.64318
G1 X148.924 Y176.56 E5.70812
G1 X146.897 Y175.507 E5.78409
G1 X145.423 Y173.932 E5.85584
G1 X144.311 Y172.06 E5.92826
G1 X143.873 Y169.873 E6.00244
G1 X143.873 Y131.373 E7.28296
G1 X144.339 Y129.477 E7.3479
G1 X145.392 Y127.45 E7.42387
G0 F6000 X145.715 Y127.695
G1 F1200 X147.208 Y126.298 E7.49188
G1 X148.985 Y125.242 E7.56063
G1 X151.064 Y124.826 E7.63115
G1 X202.48 Y124.826 E9.34125
G1 X204.279 Y125.268 E9.40286
G1 X206.204 Y126.268 E9.47501
G1 X207.601 Y127.761 E9.54302
G1 X208.657 Y129.538 E9.61177
G1 X209.073 Y131.617 E9.68229
G1 X209.073 Y170.033 E10.96001
G1 X208.631 Y171.832 E11.02163
G1 X207.631 Y173.757 E11.09378
G1 X206.138 Y175.154 E11.16178
G1 X204.361 Y176.21 E11.23053
G1 X202.282 Y176.626 E11.30105
G1 X150.866 Y176.626 E13.01115
G1 X149.067 Y176.184 E13.07277
G1 X147.142 Y175.184 E13.14492
G1 X145.745 Y173.691 E13.21292
G1 X144.689 Y171.914 E13.28168
G1 X144.273 Y169.835 E13.35219
G1 X144.273 Y131.419 E14.62992
G1 X144.715 Y129.62 E14.69153
G1 X145.715 Y127.695 E14.76368
G0 F6000 X146.038 Y127.94
G1 F1200 X147.449 Y126.62 E14.82794
G1 X149.131 Y125.621 E14.89301
G1 X151.103 Y125.226 E14.9599
G1 X202.433 Y125.226 E16.66715
G1 X204.137 Y125.645 E16.72551
G1 X205.959 Y126.591 E16.79379
G1 X207.279 Y128.002 E16.85805
G1 X208.278 Y129.684 E16.92312
G1 X208.673 Y131.656 E16.99001
G1 X208.673 Y169.986 E18.26487
G1 X208.254 Y171.69 E18.32324
G1 X207.308 Y173.512 E18.39152
G1 X205.897 Y174.832 E18.45578
G1 X204.215 Y175.831 E18.52085
G1 X202.243 Y176.226 E18.58774
G1 X150.913 Y176.226 E20.29499
G1 X149.209 Y175.807 E20.35335
G1 X147.387 Y174.861 E20.42163
G1 X146.067 Y173.45 E20.4859
G1 X145.068 Y171.768 E20.55096
G1 X144.673 Y169.796 E20.61785
G1 X144.673 Y131.466 E21.89271
G1 X145.092 Y129.762 E21.95108
G1 X146.038 Y127.94 E22.01936
G0 F6000 X146.361 Y128.185
G1 F1200 X147.69 Y126.942 E22.07988
G1 X149.277 Y125.999 E22.14128
G1 X151.141 Y125.626 E22.20451
G1 X202.387 Y125.626 E23.90896
G1 X203.994 Y126.021 E23.964
G1 X205.714 Y126.914 E24.02846
G1 X206.957 Y128.243 E24.08898
G1 X207.9 Y129.83 E24.15038
G1 X208.273 Y131.694 E24.2136
G1 X208.273 Y169.94 E25.48567
G1 X207.878 Y171.547 E25.54071
G1 X206.985 Y173.267 E25.60517
G1 X205.656 Y174.51 E25.66569
G1 X204.069 Y175.453 E25.72709
G1 X202.205 Y175.826 E25.79032
G1 X150.959 Y175.826 E27.49477
G1 X149.352 Y175.431 E27.54981
G1 X147.632 Y174.538 E27.61426
G1 X146.389 Y173.209 E27.67479
G1 X145.446 Y171.622 E27.73619
G1 X145.073 Y169.758 E27.79941
G1 X145.073 Y131.512 E29.07148
G1 X145.468 Y129.905 E29.12652
G1 X146.361 Y128.185 E29.19098
G0 F6000 X146.684 Y128.43
G1 F1200 X147.931 Y127.264 E29.24776
G1 X149.423 Y126.377 E29.30549
G1 X151.179 Y126.026 E29.36505
G1 X202.341 Y126.026 E31.06671
G1 X203.851 Y126.397 E31.11842
G1 X205.469 Y127.237 E31.17906
G1 X206.635 Y128.484 E31.23584
G1 X207.522 Y129.976 E31.29357
G1 X207.873 Y131.732 E31.35313
G1 X207.873 Y169.894 E32.6224
G1 X207.502 Y171.404 E32.67412
G1 X206.662 Y173.022 E32.73476
G1 X205.415 Y174.188 E32.79154
G1 X203.923 Y175.075 E32.84927
G1 X202.167 Y175.426 E32.90883
G1 X151.005 Y175.426 E34.61048
G1 X149.495 Y175.055 E34.6622
G1 X147.877 Y174.215 E34.72284
G1 X146.711 Y172.968 E34.77962
G1 X145.824 Y171.476 E34.83735
G1 X145.473 Y169.72 E34.89691
G1 X145.473 Y131.558 E36.16618
G1 X145.844 Y130.048 E36.2179
G1 X146.684 Y128.43 E36.27853
G0 F6000 X147.007 Y128.675
G1 F1200 X148.172 Y127.586 E36.33158
G1 X149.569 Y126.755 E36.38564
G1 X151.217 Y126.426 E36.44153
G1 X202.294 Y126.426 E38.14036
G1 X203.709 Y126.774 E38.18883
G1 X205.224 Y127.56 E38.24559
G1 X206.313 Y128.725 E38.29863
G1 X207.144 Y130.122 E38.3527
G1 X207.473 Y131.77 E38.40859
G1 X207.473 Y169.847 E39.67504
G1 X207.125 Y171.262 E39.7235
G1 X206.339 Y172.777 E39.78027
G1 X205.174 Y173.866 E39.83331
G1 X203.777 Y174.697 E39.88737
G1 X202.129 Y175.026 E39.94327
G1 X151.052 Y175.026 E41.6421
G1 X149.637 Y174.678 E41.69056
G1 X148.122 Y173.892 E41.74733
G1 X147.033 Y172.727 E41.80037
G1 X146.202 Y171.33 E41.85443
G1 X145.873 Y169.682 E41.91033
G1 X145.873 Y131.605 E43.17677
G1 X146.221 Y130.19 E43.22524
G1 X147.007 Y128.675 E43.28201
G0 F6000 X147.33 Y128.92
G1 F1200 X148.411 Y127.91 E43.33121
G1 X149.717 Y127.133 E43.38176
G1 X151.255 Y126.826 E43.43392
G1 X202.248 Y126.826 E45.12995
G1 X203.566 Y127.15 E45.1751
G1 X204.979 Y127.883 E45.22804
G1 X205.989 Y128.964 E45.27724
G1 X206.766 Y130.27 E45.32779
G1 X207.073 Y131.808 E45.37995
G1 X207.073 Y169.801 E46.6436
G1 X206.749 Y171.119 E46.68875
G1 X206.016 Y172.532 E46.74169
G1 X204.935 Y173.542 E46.7909
G1 X203.629 Y174.319 E46.84144
G1 X202.091 Y174.626 E46.8936
G1 X151.098 Y174.626 E48.58964
G1 X149.78 Y174.302 E48.63478
G1 X148.367 Y173.569 E48.68772
G1 X147.357 Y172.488 E48.73693
G1 X146.58 Y171.182 E48.78747
G1 X146.273 Y169.644 E48.83964
G1 X146.273 Y131.651 E50.10329
G1 X146.597 Y130.333 E50.14843
G1 X147.33 Y128.92 E50.20137
G0 F6000 X147.653 Y129.165
G1 F1200 X148.65 Y128.234 E50.24674
G1 X149.865 Y127.511 E50.29377
G1 X151.293 Y127.226 E50.3422
G1 X202.202 Y127.226 E52.03544
G1 X203.423 Y127.526 E52.07726
G1 X204.734 Y128.206 E52.12638
G1 X205.665 Y129.203 E52.17175
G1 X206.388 Y130.418 E52.21877
G1 X206.673 Y131.846 E52.26721
G1 X206.673 Y169.755 E53.52807
G1 X206.373 Y170.976 E53.56988
G1 X205.693 Y172.287 E53.619
G1 X204.696 Y173.218 E53.66437
G1 X203.481 Y173.941 E53.7114
G1 X202.053 Y174.226 E53.75983
G1 X151.144 Y174.226 E55.45307
G1 X149.923 Y173.926 E55.49489
G1 X148.612 Y173.246 E55.54401
G1 X147.681 Y172.249 E55.58938
G1 X146.958 Y171.034 E55.63641
G1 X146.673 Y169.606 E55.68484
G1 X146.673 Y131.697 E56.9457
G1 X146.973 Y130.476 E56.98751
G1 X147.653 Y129.165 E57.03664
G0 F6000 X147.976 Y129.41
G1 F1200 X148.889 Y128.558 E57.07817
G1 X150.013 Y127.889 E57.12168
G1 X151.331 Y127.626 E57.16638
G1 X202.156 Y127.626 E58.85682
G1 X203.28 Y127.902 E58.89532
G1 X204.489 Y128.529 E58.94062
G1 X205.341 Y129.442 E58.98215
G1 X206.01 Y130.566 E59.02566
G1 X206.273 Y131.884 E59.07036
G1 X206.273 Y169.709 E60.32842
G1 X205.997 Y170.833 E60.36692
G1 X205.37 Y172.042 E60.41221
G1 X204.457 Y172.894 E60.45375
G1 X203.333 Y173.563 E60.49725
G1 X202.015 Y173.826 E60.54195
G1 X151.19 Y173.826 E62.2324
G1 X150.066 Y173.55 E62.2709
G1 X148.857 Y172.923 E62.31619
G1 X148.005 Y172.01 E62.35773
G1 X147.336 Y170.886 E62.40123
G1 X147.073 Y169.568 E62.44593
G1 X147.073 Y131.743 E63.704
G1 X147.349 Y130.619 E63.74249
G1 X147.976 Y129.41 E63.78779
G0 F6000 X148.298 Y129.657
G1 F1200 X149.131 Y128.88 E63.82568
G1 X150.161 Y128.267 E63.86555
G1 X151.369 Y128.026 E63.90652
G1 X202.109 Y128.026 E65.59413
G1 X203.138 Y128.279 E65.62938
G1 X204.242 Y128.851 E65.67073
G1 X205.019 Y129.684 E65.70862
G1 X205.632 Y130.714 E65.74849
G1 X205.873 Y131.922 E65.78946
G1 X205.873 Y169.662 E67.04469
G1 X205.62 Y170.691 E67.07994
G1 X205.048 Y171.795 E67.12129
G1 X204.215 Y172.572 E67.15918
G1 X203.185 Y173.185 E67.19905
G1 X201.977 Y173.426 E67.24002
G1 X151.237 Y173.426 E68.92764
G1 X150.208 Y173.173 E68.96288
G1 X149.104 Y172.601 E69.00424
G1 X148.327 Y171.768 E69.04212
G1 X147.714 Y170.738 E69.08199
G1 X147.473 Y169.53 E69.12296
G1 X147.473 Y131.79 E70.3782
G1 X147.726 Y130.761 E70.41344
G1 X148.298 Y129.657 E70.4548
G0 F6000 X148.62 Y129.904
G1 F1200 X149.373 Y129.202 E70.48904
G1 X150.309 Y128.645 E70.52526
G1 X151.407 Y128.426 E70.5625
G1 X202.063 Y128.426 E72.24733
G1 X202.995 Y128.655 E72.27925
G1 X203.995 Y129.173 E72.31671
G1 X204.697 Y129.926 E72.35095
G1 X205.254 Y130.862 E72.38717
G1 X205.473 Y131.96 E72.42441
G1 X205.473 Y169.616 E73.67685
G1 X205.244 Y170.548 E73.70878
G1 X204.726 Y171.548 E73.74623
G1 X203.973 Y172.25 E73.78047
G1 X203.037 Y172.807 E73.8167
G1 X201.939 Y173.026 E73.85394
G1 X151.283 Y173.026 E75.53876
G1 X150.351 Y172.797 E75.57068
G1 X149.351 Y172.279 E75.60814
G1 X148.649 Y171.526 E75.64238
G1 X148.092 Y170.59 E75.67861
G1 X147.873 Y169.492 E75.71585
G1 X147.873 Y131.836 E76.96829
G1 X148.102 Y130.904 E77.00021
G1 X148.62 Y129.904 E77.03767
G0 F6000 X148.942 Y130.151
G1 F1200 X149.615 Y129.524 E77.06826
G1 X150.457 Y129.023 E77.10085
G1 X151.445 Y128.826 E77.13436
G1 X202.017 Y128.826 E78.81639
G1 X202.852 Y129.031 E78.84499
G1 X203.748 Y129.495 E78.87855
G1 X204.375 Y130.168 E78.90914
G1 X204.876 Y131.01 E78.94173
G1 X205.073 Y131.998 E78.97524
G1 X205.073 Y169.57 E80.22489
G1 X204.868 Y170.405 E80.25348
G1 X204.404 Y171.301 E80.28704
G1 X203.731 Y171.928 E80.31764
G1 X202.889 Y172.429 E80.35022
G1 X201.901 Y172.626 E80.38373
G1 X151.329 Y172.626 E82.06576
G1 X150.494 Y172.421 E82.09436
G1 X149.598 Y171.957 E82.12792
G1 X148.971 Y171.284 E82.15851
G1 X148.47 Y170.442 E82.1911
G1 X148.273 Y169.454 E82.22461
G1 X148.273 Y131.882 E83.47426
G1 X148.478 Y131.047 E83.50285
G1 X148.942 Y130.151 E83.53641
G0 F6000 X149.264 Y130.398
G1 F1200 X149.857 Y129.846 E83.56336
G1 X150.605 Y129.401 E83.59231
G1 X151.483 Y129.226 E83.62209
G1 X201.971 Y129.226 E85.30132
G1 X202.709 Y129.407 E85.3266
G1 X203.501 Y129.817 E85.35626
G1 X204.053 Y130.41 E85.38321
G1 X204.498 Y131.158 E85.41215
G1 X204.673 Y132.036 E85.44193
G1 X204.673 Y169.524 E86.68879
G1 X204.492 Y170.262 E86.71406
G1 X204.082 Y171.054 E86.74372
G1 X203.489 Y171.606 E86.77067
G1 X202.741 Y172.051 E86.79962
G1 X201.863 Y172.226 E86.82939
G1 X151.375 Y172.226 E88.50863
G1 X150.637 Y172.045 E88.5339
G1 X149.845 Y171.635 E88.56357
G1 X149.293 Y171.042 E88.59051
G1 X148.848 Y170.294 E88.61946
G1 X148.673 Y169.416 E88.64924
G1 X148.673 Y131.928 E89.89609
G1 X148.854 Y131.19 E89.92137
G1 X149.264 Y130.398 E89.95103
G0 F6000 X149.587 Y130.643
G1 F1200 X150.096 Y130.17 E89.97414
G1 X150.753 Y129.779 E89.99957
G1 X151.521 Y129.626 E90.02562
G1 X201.921 Y129.626 E91.70193
G1 X202.57 Y129.785 E91.72415
G1 X203.256 Y130.14 E91.74984
G1 X203.729 Y130.649 E91.77295
G1 X204.12 Y131.306 E91.79838
G1 X204.273 Y132.074 E91.82443
G1 X204.273 Y169.474 E93.06836
G1 X204.114 Y170.123 E93.09058
G1 X203.759 Y170.809 E93.11627
G1 X203.25 Y171.282 E93.13938
G1 X202.593 Y171.673 E93.16481
G1 X201.825 Y171.826 E93.19086
G1 X151.425 Y171.826 E94.86717
G1 X150.776 Y171.667 E94.88939
G1 X150.09 Y171.312 E94.91508
G1 X149.617 Y170.803 E94.93819
G1 X149.226 Y170.146 E94.96362
G1 X149.073 Y169.378 E94.98967
G1 X149.073 Y131.978 E96.23359
G1 X149.232 Y131.329 E96.25582
G1 X149.587 Y130.643 E96.28151
G0 F6000 X149.91 Y130.888
G1 F1200 X150.335 Y130.494 E96.30079
G1 X150.901 Y130.157 E96.32269
G1 X151.559 Y130.026 E96.34501
G1 X201.871 Y130.026 E98.01839
G1 X202.431 Y130.163 E98.03757
G1 X203.011 Y130.463 E98.05929
G1 X203.405 Y130.888 E98.07856
G1 X203.742 Y131.454 E98.10047
G1 X203.873 Y132.112 E98.12279
G1 X203.873 Y169.424 E99.36379
G1 X203.736 Y169.984 E99.38296
G1 X203.436 Y170.564 E99.40468
G1 X203.011 Y170.958 E99.42396
G1 X202.445 Y171.295 E99.44587
G1 X201.787 Y171.426 E99.46818
G1 X151.475 Y171.426 E101.14157
G1 X150.915 Y171.289 E101.16074
G1 X150.335 Y170.989 E101.18246
G1 X149.941 Y170.564 E101.20173
G1 X149.604 Y169.998 E101.22364
G1 X149.473 Y169.34 E101.24596
G1 X149.473 Y132.028 E102.48696
G1 X149.61 Y131.468 E102.50614
G1 X149.91 Y130.888 E102.52785
G0 F6000 X150.233 Y131.134
G1 F1200 X150.574 Y130.818 E102.54332
G1 X151.049 Y130.535 E102.56171
G1 X151.597 Y130.426 E102.58029
G1 X201.821 Y130.426 E104.25075
G1 X202.292 Y130.541 E104.26687
G1 X202.765 Y130.786 E104.28459
G1 X203.081 Y131.127 E104.30005
G1 X203.364 Y131.602 E104.31844
G1 X203.473 Y132.15 E104.33703
G1 X203.473 Y169.374 E105.5751
G1 X203.358 Y169.845 E105.59123
G1 X203.113 Y170.318 E105.60895
G1 X202.772 Y170.634 E105.62441
G1 X202.297 Y170.917 E105.6428
G1 X201.749 Y171.026 E105.66138
G1 X151.525 Y171.026 E107.33184
G1 X151.054 Y170.911 E107.34796
G1 X150.581 Y170.666 E107.36568
G1 X150.265 Y170.325 E107.38114
G1 X149.982 Y169.85 E107.39953
G1 X149.873 Y169.302 E107.41812
G1 X149.873 Y132.078 E108.65619
G1 X149.988 Y131.607 E108.67232
G1 X150.233 Y131.134 E108.69004
G0 F6000 X150.556 Y131.38
G1 F1200 X150.813 Y131.142 E108.70169
G1 X151.197 Y130.913 E108.71656
G1 X151.635 Y130.826 E108.73141
G1 X201.771 Y130.826 E110.39894
G1 X202.153 Y130.919 E110.41202
G1 X202.519 Y131.109 E110.42573
G1 X202.757 Y131.366 E110.43738
G1 X202.986 Y131.75 E110.45225
G1 X203.073 Y132.188 E110.46711
G1 X203.073 Y169.324 E111.70225
G1 X202.98 Y169.706 E111.71533
G1 X202.79 Y170.072 E111.72905
G1 X202.533 Y170.31 E111.7407
G1 X202.149 Y170.539 E111.75557
G1 X201.711 Y170.626 E111.77042
G1 X151.575 Y170.626 E113.43795
G1 X151.193 Y170.533 E113.45103
G1 X150.827 Y170.343 E113.46474
G1 X150.589 Y170.086 E113.47639
G1 X150.36 Y169.702 E113.49126
G1 X150.273 Y169.264 E113.50611
G1 X150.273 Y132.128 E114.74126
G1 X150.366 Y131.746 E114.75434
G1 X150.556 Y131.38 E114.76806
G0 F6000 X150.88 Y131.625
G1 F1200 X151.018 Y131.486 E114.77457
G1 X151.345 Y131.291 E114.78723
G1 X151.673 Y131.226 E114.79835
G1 X201.722 Y131.226 E116.46299
G1 X202.011 Y131.296 E116.47288
G1 X202.274 Y131.433 E116.48274
G1 X202.413 Y131.571 E116.48926
G1 X202.608 Y131.898 E116.50192
G1 X202.673 Y132.226 E116.51304
G1 X202.673 Y169.275 E117.7453
G1 X202.603 Y169.564 E117.75519
G1 X202.466 Y169.827 E117.76505
G1 X202.328 Y169.966 E117.77157
G1 X202.001 Y170.161 E117.78423
G1 X201.673 Y170.226 E117.79535
G1 X151.624 Y170.226 E119.45999
G1 X151.335 Y170.156 E119.46988
G1 X151.072 Y170.019 E119.47974
G1 X150.933 Y169.881 E119.48626
G1 X150.738 Y169.554 E119.49892
G1 X150.673 Y169.226 E119.51004
G1 X150.673 Y132.177 E120.74229
G1 X150.743 Y131.888 E120.75218
G1 X150.88 Y131.625 E120.76205
G0 F6000 X151.223 Y131.83
G1 F1200 X151.493 Y131.669 E120.7725
G1 X151.673 Y131.626 E120.77866
G1 X201.673 Y131.626 E122.44167
G1 X201.917 Y131.685 E122.45001
G1 X202.069 Y131.776 E122.45591
G1 X202.23 Y132.046 E122.46636
G1 X202.273 Y132.226 E122.47252
G1 X202.273 Y169.226 E123.70314
G1 X202.214 Y169.47 E123.71149
G1 X202.123 Y169.622 E123.71738
G1 X201.853 Y169.783 E123.72784
G1 X201.673 Y169.826 E123.734
G1 X151.673 Y169.826 E125.397
G1 X151.429 Y169.767 E125.40535
G1 X151.277 Y169.676 E125.41124
G1 X151.116 Y169.406 E125.4217
G1 X151.073 Y169.226 E125.42785
G1 X151.073 Y132.226 E126.65848
G1 X151.132 Y131.982 E126.66683
G1 X151.223 Y131.83 E126.67272
G0 F6000 X151.512 Y132.107
G1 F1200 X151.673 Y132.026 E126.67872
G1 X201.673 Y132.026 E128.34172
G1 X201.792 Y132.065 E128.34589
G1 X201.873 Y132.226 E128.35188
G1 X201.873 Y169.226 E129.58251
G1 X201.834 Y169.345 E129.58667
G1 X201.673 Y169.426 E129.59267
G1 X151.673 Y169.426 E131.25567
G1 X151.554 Y169.387 E131.25984
G1 X151.473 Y169.226 E131.26583
G1 X151.473 Y132.226 E132.49646
