;FLAVOR:Marlin
;TIME:3799
;Filament used: 3.03601m
;Layer height: 0.2
;MINX:137.006
;MINY:105.31
;MINZ:0.2
;MAXX:202.606
;MAXY:157.91
;MAXZ:28.4
;Generated with Cura_SteamEngine 5.3.0
M140 S60
M105
M190 S60
M104 S200
M105
M109 S200
M82 ;absolute extrusion mode
M201 X500.00 Y500.00 Z100.00 E5000.00 ;Setup machine max acceleration
M203 X500.00 Y500.00 Z10.00 E50.00 ;Setup machine max feedrate
M204 P500.00 R1000.00 T500.00 ;Setup Print/Retract/Travel acceleration
M205 X8.00 Y8.00 Z0.40 E5.00 ;Setup Jerk
M220 S100 ;Reset Feedrate
M221 S100 ;Reset Flowrate

G28 ;Home
M420 S1 Z2 ;Enable ABL using saved Mesh and Fade Height

G92 E0 ;Reset Extruder
G1 Z2.0 F3000 ;Move Z Axis up
G1 X10.1 Y20 Z0.28 F5000.0 ;Move to start position
G1 X10.1 Y200.0 Z0.28 F1500.0 E15 ;Draw the first line
G1 X10.4 Y200.0 Z0.28 F5000.0 ;Move to side a little
G1 X10.4 Y20 Z0.28 F1500.0 E30 ;Draw the second line
G92 E0 ;Reset Extruder
G1 Z2.0 F3000 ;Move Z Axis up

G92 E0
G92 E0
G1 F1500 E-6.5
;LAYER_COUNT:143
;LAYER:0
M107
G0 F6000 X138.525 Y108.334 Z0.2
;TYPE:SKIRT
G1 F1500 E0
G1 F1200 X140.1 Y106.86 E0.07175
G1 X141.972 Y105.748 E0.14417
G1 X144.159 Y105.31 E0.21835
G1 X195.659 Y105.31 E1.93125
G1 X197.555 Y105.776 E1.99619
G1 X199.582 Y106.829 E2.07216
G1 X201.056 Y108.404 E2.14391
G1 X202.168 Y110.276 E2.21633
G1 X202.606 Y112.463 E2.29051
G1 X202.606 Y150.963 E3.57102
G1 X202.14 Y152.859 E3.63596
G1 X201.087 Y154.886 E3.71194
G1 X199.512 Y156.36 E3.78368
G1 X197.64 Y157.472 E3.8561
G1 X195.453 Y157.91 E3.93029
G1 X143.953 Y157.91 E5.64318
G1 X142.057 Y157.444 E5.70812
G1 X140.03 Y156.391 E5.78409
G1 X138.556 Y154.816 E5.85584
G1 X137.444 Y152.944 E5.92826
G1 X137.006 Y150.757 E6.00244
G1 X137.006 Y112.257 E7.28296
G1 X137.472 Y110.361 E7.3479
G1 X138.525 Y108.334 E7.42387
G0 F6000 X138.848 Y108.579
G1 F1200 X140.341 Y107.182 E7.49188
G1 X142.118 Y106.126 E7.56063
G1 X144.197 Y105.71 E7.63115
G1 X195.613 Y105.71 E9.34125
G1 X197.412 Y106.152 E9.40286
G1 X199.337 Y107.152 E9.47501
G1 X200.734 Y108.645 E9.54302
G1 X201.79 Y110.422 E9.61177
G1 X202.206 Y112.501 E9.68229
G1 X202.206 Y150.917 E10.96001
G1 X201.764 Y152.716 E11.02163
G1 X200.764 Y154.641 E11.09378
G1 X199.271 Y156.038 E11.16178
G1 X197.494 Y157.094 E11.23053
G1 X195.415 Y157.51 E11.30105
G1 X143.999 Y157.51 E13.01115
G1 X142.2 Y157.068 E13.07277
G1 X140.275 Y156.068 E13.14492
G1 X138.878 Y154.575 E13.21292
G1 X137.822 Y152.798 E13.28168
G1 X137.406 Y150.719 E13.35219
G1 X137.406 Y112.303 E14.62992
G1 X137.848 Y110.504 E14.69153
G1 X138.848 Y108.579 E14.76368
G0 F6000 X139.171 Y108.824
G1 F1200 X140.582 Y107.504 E14.82794
G1 X142.264 Y106.505 E14.89301
G1 X144.236 Y106.11 E14.9599
G1 X195.566 Y106.11 E16.66715
G1 X197.27 Y106.529 E16.72551
G1 X199.092 Y107.475 E16.79379
G1 X200.412 Y108.886 E16.85805
G1 X201.411 Y110.568 E16.92312
G1 X201.806 Y112.54 E16.99001
G1 X201.806 Y150.87 E18.26487
G1 X201.387 Y152.574 E18.32324
G1 X200.441 Y154.396 E18.39152
G1 X199.03 Y155.716 E18.45578
G1 X197.348 Y156.715 E18.52085
G1 X195.376 Y157.11 E18.58774
G1 X144.046 Y157.11 E20.29499
G1 X142.342 Y156.691 E20.35335
G1 X140.52 Y155.745 E20.42163
G1 X139.2 Y154.334 E20.4859
G1 X138.201 Y152.652 E20.55096
G1 X137.806 Y150.68 E20.61785
G1 X137.806 Y112.35 E21.89271
G1 X138.225 Y110.646 E21.95108
G1 X139.171 Y108.824 E22.01936
G0 F6000 X139.494 Y109.069
G1 F1200 X140.823 Y107.826 E22.07988
G1 X142.41 Y106.883 E22.14128
G1 X144.274 Y106.51 E22.20451
G1 X195.52 Y106.51 E23.90896
G1 X197.127 Y106.905 E23.964
G1 X198.847 Y107.798 E24.02846
G1 X200.09 Y109.127 E24.08898
G1 X201.033 Y110.714 E24.15038
G1 X201.406 Y112.578 E24.2136
G1 X201.406 Y150.824 E25.48567
G1 X201.011 Y152.431 E25.54071
G1 X200.118 Y154.151 E25.60517
G1 X198.789 Y155.394 E25.66569
G1 X197.202 Y156.337 E25.72709
G1 X195.338 Y156.71 E25.79032
G1 X144.092 Y156.71 E27.49477
G1 X142.485 Y156.315 E27.54981
G1 X140.765 Y155.422 E27.61426
G1 X139.522 Y154.093 E27.67479
G1 X138.579 Y152.506 E27.73619
G1 X138.206 Y150.642 E27.79941
G1 X138.206 Y112.396 E29.07148
G1 X138.601 Y110.789 E29.12652
G1 X139.494 Y109.069 E29.19098
G0 F6000 X139.817 Y109.314
G1 F1200 X141.064 Y108.148 E29.24776
G1 X142.556 Y107.261 E29.30549
G1 X144.312 Y106.91 E29.36505
G1 X195.474 Y106.91 E31.06671
G1 X196.984 Y107.281 E31.11842
G1 X198.602 Y108.121 E31.17906
G1 X199.768 Y109.368 E31.23584
G1 X200.655 Y110.86 E31.29357
G1 X201.006 Y112.616 E31.35313
G1 X201.006 Y150.778 E32.6224
G1 X200.635 Y152.288 E32.67412
G1 X199.795 Y153.906 E32.73476
G1 X198.548 Y155.072 E32.79154
G1 X197.056 Y155.959 E32.84927
G1 X195.3 Y156.31 E32.90883
G1 X144.138 Y156.31 E34.61048
G1 X142.628 Y155.939 E34.6622
G1 X141.01 Y155.099 E34.72284
G1 X139.844 Y153.852 E34.77962
G1 X138.957 Y152.36 E34.83735
G1 X138.606 Y150.604 E34.89691
G1 X138.606 Y112.442 E36.16618
G1 X138.977 Y110.932 E36.2179
G1 X139.817 Y109.314 E36.27853
G0 F6000 X140.14 Y109.559
G1 F1200 X141.305 Y108.47 E36.33158
G1 X142.702 Y107.639 E36.38564
G1 X144.35 Y107.31 E36.44153
G1 X195.427 Y107.31 E38.14036
G1 X196.842 Y107.658 E38.18883
G1 X198.357 Y108.444 E38.24559
G1 X199.446 Y109.609 E38.29863
G1 X200.277 Y111.006 E38.3527
G1 X200.606 Y112.654 E38.40859
G1 X200.606 Y150.731 E39.67504
G1 X200.258 Y152.146 E39.7235
G1 X199.472 Y153.661 E39.78027
G1 X198.307 Y154.75 E39.83331
G1 X196.91 Y155.581 E39.88737
G1 X195.262 Y155.91 E39.94327
G1 X144.185 Y155.91 E41.6421
G1 X142.77 Y155.562 E41.69056
G1 X141.255 Y154.776 E41.74733
G1 X140.166 Y153.611 E41.80037
G1 X139.335 Y152.214 E41.85443
G1 X139.006 Y150.566 E41.91033
G1 X139.006 Y112.489 E43.17677
G1 X139.354 Y111.074 E43.22524
G1 X140.14 Y109.559 E43.28201
G0 F6000 X140.463 Y109.804
G1 F1200 X141.544 Y108.794 E43.33121
G1 X142.85 Y108.017 E43.38176
G1 X144.388 Y107.71 E43.43392
G1 X195.381 Y107.71 E45.12995
G1 X196.699 Y108.034 E45.1751
G1 X198.112 Y108.767 E45.22804
G1 X199.122 Y109.848 E45.27724
G1 X199.899 Y111.154 E45.32779
G1 X200.206 Y112.692 E45.37995
G1 X200.206 Y150.685 E46.6436
G1 X199.882 Y152.003 E46.68875
G1 X199.149 Y153.416 E46.74169
G1 X198.068 Y154.426 E46.7909
G1 X196.762 Y155.203 E46.84144
G1 X195.224 Y155.51 E46.8936
G1 X144.231 Y155.51 E48.58964
G1 X142.913 Y155.186 E48.63478
G1 X141.5 Y154.453 E48.68772
G1 X140.49 Y153.372 E48.73693
G1 X139.713 Y152.066 E48.78747
G1 X139.406 Y150.528 E48.83964
G1 X139.406 Y112.535 E50.10329
G1 X139.73 Y111.217 E50.14843
G1 X140.463 Y109.804 E50.20137
G0 F6000 X140.786 Y110.049
G1 F1200 X141.783 Y109.118 E50.24674
G1 X142.998 Y108.395 E50.29377
G1 X144.426 Y108.11 E50.3422
G1 X195.335 Y108.11 E52.03544
G1 X196.556 Y108.41 E52.07726
G1 X197.867 Y109.09 E52.12638
G1 X198.798 Y110.087 E52.17175
G1 X199.521 Y111.302 E52.21877
G1 X199.806 Y112.73 E52.26721
G1 X199.806 Y150.639 E53.52807
G1 X199.506 Y151.86 E53.56988
G1 X198.826 Y153.171 E53.619
G1 X197.829 Y154.102 E53.66437
G1 X196.614 Y154.825 E53.7114
G1 X195.186 Y155.11 E53.75983
G1 X144.277 Y155.11 E55.45307
G1 X143.056 Y154.81 E55.49489
G1 X141.745 Y154.13 E55.54401
G1 X140.814 Y153.133 E55.58938
G1 X140.091 Y151.918 E55.63641
G1 X139.806 Y150.49 E55.68484
G1 X139.806 Y112.581 E56.9457
G1 X140.106 Y111.36 E56.98751
G1 X140.786 Y110.049 E57.03664
G0 F6000 X141.109 Y110.294
G1 F1200 X142.022 Y109.442 E57.07817
G1 X143.146 Y108.773 E57.12168
G1 X144.464 Y108.51 E57.16638
G1 X195.289 Y108.51 E58.85682
G1 X196.413 Y108.786 E58.89532
G1 X197.622 Y109.413 E58.94062
G1 X198.474 Y110.326 E58.98215
G1 X199.143 Y111.45 E59.02566
G1 X199.406 Y112.768 E59.07036
G1 X199.406 Y150.593 E60.32842
G1 X199.13 Y151.717 E60.36692
G1 X198.503 Y152.926 E60.41221
G1 X197.59 Y153.778 E60.45375
G1 X196.466 Y154.447 E60.49725
G1 X195.148 Y154.71 E60.54195
G1 X144.323 Y154.71 E62.2324
G1 X143.199 Y154.434 E62.2709
G1 X141.99 Y153.807 E62.31619
G1 X141.138 Y152.894 E62.35773
G1 X140.469 Y151.77 E62.40123
G1 X140.206 Y150.452 E62.44593
G1 X140.206 Y112.627 E63.704
G1 X140.482 Y111.503 E63.74249
G1 X141.109 Y110.294 E63.78779
G0 F6000 X141.431 Y110.541
G1 F1200 X142.264 Y109.764 E63.82568
G1 X143.294 Y109.151 E63.86555
G1 X144.502 Y108.91 E63.90652
G1 X195.242 Y108.91 E65.59413
G1 X196.271 Y109.163 E65.62938
G1 X197.375 Y109.735 E65.67073
G1 X198.152 Y110.568 E65.70862
G1 X198.765 Y111.598 E65.74849
G1 X199.006 Y112.806 E65.78946
G1 X199.006 Y150.546 E67.04469
G1 X198.753 Y151.575 E67.07994
G1 X198.181 Y152.679 E67.12129
G1 X197.348 Y153.456 E67.15918
G1 X196.318 Y154.069 E67.19905
G1 X195.11 Y154.31 E67.24002
G1 X144.37 Y154.31 E68.92764
G1 X143.341 Y154.057 E68.96288
G1 X142.237 Y153.485 E69.00424
G1 X141.46 Y152.652 E69.04212
G1 X140.847 Y151.622 E69.08199
G1 X140.606 Y150.414 E69.12296
G1 X140.606 Y112.674 E70.3782
G1 X140.859 Y111.645 E70.41344
G1 X141.431 Y110.541 E70.4548
G0 F6000 X141.753 Y110.788
G1 F1200 X142.506 Y110.086 E70.48904
G1 X143.442 Y109.529 E70.52526
G1 X144.54 Y109.31 E70.5625
G1 X195.196 Y109.31 E72.24733
G1 X196.128 Y109.539 E72.27925
G1 X197.128 Y110.057 E72.31671
G1 X197.83 Y110.81 E72.35095
G1 X198.387 Y111.746 E72.38717
G1 X198.606 Y112.844 E72.42441
G1 X198.606 Y150.5 E73.67685
G1 X198.377 Y151.432 E73.70878
G1 X197.859 Y152.432 E73.74623
G1 X197.106 Y153.134 E73.78047
G1 X196.17 Y153.691 E73.8167
G1 X195.072 Y153.91 E73.85394
G1 X144.416 Y153.91 E75.53876
G1 X143.484 Y153.681 E75.57068
G1 X142.484 Y153.163 E75.60814
G1 X141.782 Y152.41 E75.64238
G1 X141.225 Y151.474 E75.67861
G1 X141.006 Y150.376 E75.71585
G1 X141.006 Y112.72 E76.96829
G1 X141.235 Y111.788 E77.00021
G1 X141.753 Y110.788 E77.03767
G0 F6000 X142.075 Y111.035
G1 F1200 X142.748 Y110.408 E77.06826
G1 X143.59 Y109.907 E77.10085
G1 X144.578 Y109.71 E77.13436
G1 X195.15 Y109.71 E78.81639
G1 X195.985 Y109.915 E78.84499
G1 X196.881 Y110.379 E78.87855
G1 X197.508 Y111.052 E78.90914
G1 X198.009 Y111.894 E78.94173
G1 X198.206 Y112.882 E78.97524
G1 X198.206 Y150.454 E80.22489
G1 X198.001 Y151.289 E80.25348
G1 X197.537 Y152.185 E80.28704
G1 X196.864 Y152.812 E80.31764
G1 X196.022 Y153.313 E80.35022
G1 X195.034 Y153.51 E80.38373
G1 X144.462 Y153.51 E82.06576
G1 X143.627 Y153.305 E82.09436
G1 X142.731 Y152.841 E82.12792
G1 X142.104 Y152.168 E82.15851
G1 X141.603 Y151.326 E82.1911
G1 X141.406 Y150.338 E82.22461
G1 X141.406 Y112.766 E83.47426
G1 X141.611 Y111.931 E83.50285
G1 X142.075 Y111.035 E83.53641
G0 F6000 X142.397 Y111.282
G1 F1200 X142.99 Y110.73 E83.56336
G1 X143.738 Y110.285 E83.59231
G1 X144.616 Y110.11 E83.62209
G1 X195.104 Y110.11 E85.30132
G1 X195.842 Y110.291 E85.3266
G1 X196.634 Y110.701 E85.35626
G1 X197.186 Y111.294 E85.38321
G1 X197.631 Y112.042 E85.41215
G1 X197.806 Y112.92 E85.44193
G1 X197.806 Y150.408 E86.68879
G1 X197.625 Y151.146 E86.71406
G1 X197.215 Y151.938 E86.74372
G1 X196.622 Y152.49 E86.77067
G1 X195.874 Y152.935 E86.79962
G1 X194.996 Y153.11 E86.82939
G1 X144.508 Y153.11 E88.50863
G1 X143.77 Y152.929 E88.5339
G1 X142.978 Y152.519 E88.56357
G1 X142.426 Y151.926 E88.59051
G1 X141.981 Y151.178 E88.61946
G1 X141.806 Y150.3 E88.64924
G1 X141.806 Y112.812 E89.89609
G1 X141.987 Y112.074 E89.92137
G1 X142.397 Y111.282 E89.95103
G0 F6000 X142.72 Y111.527
G1 F1200 X143.229 Y111.054 E89.97414
G1 X143.886 Y110.663 E89.99957
G1 X144.654 Y110.51 E90.02562
G1 X195.054 Y110.51 E91.70193
G1 X195.703 Y110.669 E91.72415
G1 X196.389 Y111.024 E91.74984
G1 X196.862 Y111.533 E91.77295
G1 X197.253 Y112.19 E91.79838
G1 X197.406 Y112.958 E91.82443
G1 X197.406 Y150.358 E93.06836
G1 X197.247 Y151.007 E93.09058
G1 X196.892 Y151.693 E93.11627
G1 X196.383 Y152.166 E93.13938
G1 X195.726 Y152.557 E93.16481
G1 X194.958 Y152.71 E93.19086
G1 X144.558 Y152.71 E94.86717
G1 X143.909 Y152.551 E94.88939
G1 X143.223 Y152.196 E94.91508
G1 X142.75 Y151.687 E94.93819
G1 X142.359 Y151.03 E94.96362
G1 X142.206 Y150.262 E94.98967
G1 X142.206 Y112.862 E96.23359
G1 X142.365 Y112.213 E96.25582
G1 X142.72 Y111.527 E96.28151
G0 F6000 X143.043 Y111.772
G1 F1200 X143.468 Y111.378 E96.30079
G1 X144.034 Y111.041 E96.32269
G1 X144.692 Y110.91 E96.34501
G1 X195.004 Y110.91 E98.01839
G1 X195.564 Y111.047 E98.03757
G1 X196.144 Y111.347 E98.05929
G1 X196.538 Y111.772 E98.07856
G1 X196.875 Y112.338 E98.10047
G1 X197.006 Y112.996 E98.12279
G1 X197.006 Y150.308 E99.36379
G1 X196.869 Y150.868 E99.38296
G1 X196.569 Y151.448 E99.40468
G1 X196.144 Y151.842 E99.42396
G1 X195.578 Y152.179 E99.44587
G1 X194.92 Y152.31 E99.46818
G1 X144.608 Y152.31 E101.14157
G1 X144.048 Y152.173 E101.16074
G1 X143.468 Y151.873 E101.18246
G1 X143.074 Y151.448 E101.20173
G1 X142.737 Y150.882 E101.22364
G1 X142.606 Y150.224 E101.24596
G1 X142.606 Y112.912 E102.48696
G1 X142.743 Y112.352 E102.50614
G1 X143.043 Y111.772 E102.52785
G0 F6000 X143.366 Y112.018
G1 F1200 X143.707 Y111.702 E102.54332
G1 X144.182 Y111.419 E102.56171
G1 X144.73 Y111.31 E102.58029
G1 X194.954 Y111.31 E104.25075
G1 X195.425 Y111.425 E104.26687
G1 X195.898 Y111.67 E104.28459
G1 X196.214 Y112.011 E104.30005
G1 X196.497 Y112.486 E104.31844
G1 X196.606 Y113.034 E104.33703
G1 X196.606 Y150.258 E105.5751
G1 X196.491 Y150.729 E105.59123
G1 X196.246 Y151.202 E105.60895
G1 X195.905 Y151.518 E105.62441
G1 X195.43 Y151.801 E105.6428
G1 X194.882 Y151.91 E105.66138
G1 X144.658 Y151.91 E107.33184
G1 X144.187 Y151.795 E107.34796
G1 X143.714 Y151.55 E107.36568
G1 X143.398 Y151.209 E107.38114
G1 X143.115 Y150.734 E107.39953
G1 X143.006 Y150.186 E107.41812
G1 X143.006 Y112.962 E108.65619
G1 X143.121 Y112.491 E108.67232
G1 X143.366 Y112.018 E108.69004
G0 F6000 X143.689 Y112.264
G1 F1200 X143.946 Y112.026 E108.70169
G1 X144.33 Y111.797 E108.71656
G1 X144.768 Y111.71 E108.73141
G1 X194.904 Y111.71 E110.39894
G1 X195.286 Y111.803 E110.41202
G1 X195.652 Y111.993 E110.42573
G1 X195.89 Y112.25 E110.43738
G1 X196.119 Y112.634 E110.45225
G1 X196.206 Y113.072 E110.46711
G1 X196.206 Y150.208 E111.70225
G1 X196.113 Y150.59 E111.71533
G1 X195.923 Y150.956 E111.72905
G1 X195.666 Y151.194 E111.7407
G1 X195.282 Y151.423 E111.75557
G1 X194.844 Y151.51 E111.77042
G1 X144.708 Y151.51 E113.43795
G1 X144.326 Y151.417 E113.45103
G1 X143.96 Y151.227 E113.46474
G1 X143.722 Y150.97 E113.47639
G1 X143.493 Y150.586 E113.49126
G1 X143.406 Y150.148 E113.50611
G1 X143.406 Y113.012 E114.74126
G1 X143.499 Y112.63 E114.75434
G1 X143.689 Y112.264 E114.76806
G0 F6000 X144.013 Y112.509
G1 F1200 X144.151 Y112.37 E114.77457
G1 X144.478 Y112.175 E114.78723
G1 X144.806 Y112.11 E114.79835
G1 X194.855 Y112.11 E116.46299
G1 X195.144 Y112.18 E116.47288
G1 X195.407 Y112.317 E116.48274
G1 X195.546 Y112.455 E116.48926
G1 X195.741 Y112.782 E116.50192
G1 X195.806 Y113.11 E116.51304
G1 X195.806 Y150.159 E117.7453
G1 X195.736 Y150.448 E117.75519
G1 X195.599 Y150.711 E117.76505
G1 X195.461 Y150.85 E117.77157
G1 X195.134 Y151.045 E117.78423
G1 X194.806 Y151.11 E117.79535
G1 X144.757 Y151.11 E119.45999
G1 X144.468 Y151.04 E119.46988
G1 X144.205 Y150.903 E119.47974
G1 X144.066 Y150.765 E119.48626
G1 X143.871 Y150.438 E119.49892
G1 X143.806 Y150.11 E119.51004
G1 X143.806 Y113.061 E120.74229
G1 X143.876 Y112.772 E120.75218
G1 X144.013 Y112.509 E120.76205
G0 F6000 X144.356 Y112.714
G1 F1200 X144.626 Y112.553 E120.7725
G1 X144.806 Y112.51 E120.77866
G1 X194.806 Y112.51 E122.44167
G1 X195.05 Y112.569 E122.45001
G1 X195.202 Y112.66 E122.45591
G1 X195.363 Y112.93 E122.46636
G1 X195.406 Y113.11 E122.47252
G1 X195.406 Y150.11 E123.70314
G1 X195.347 Y150.354 E123.71149
G1 X195.256 Y150.506 E123.71738
G1 X194.986 Y150.667 E123.72784
G1 X194.806 Y150.71 E123.734
G1 X144.806 Y150.71 E125.397
G1 X144.562 Y150.651 E125.40535
G1 X144.41 Y150.56 E125.41124
G1 X144.249 Y150.29 E125.4217
G1 X144.206 Y150.11 E125.42785
G1 X144.206 Y113.11 E126.65848
G1 X144.265 Y112.866 E126.66683
G1 X144.356 Y112.714 E126.67272
G0 F6000 X144.645 Y112.991
G1 F1200 X144.806 Y112.91 E126.67872
G1 X194.806 Y112.91 E128.34172
G1 X194.925 Y112.949 E128.34589
G1 X195.006 Y113.11 E128.35188
G1 X195.006 Y150.11 E129.58251
G1 X194.967 Y150.229 E129.58667
G1 X194.806 Y150.31 E129.59267
G1 X144.806 Y150.31 E131.25567
G1 X144.687 Y150.271 E131.25984
G1 X144.606 Y150.11 E131.26583
G1 X144.606 Y113.11 E132.49646
G1 X144.645 Y112.991 E132.50062
G1 F1500 E126.00062
;MESH:galvo_laser_holder_holders.3mf
