;FLAVOR:Marlin
;TIME:3814
;Filament used: 3.03579m
;Layer height: 0.2
;MINX:116.523
;MINY:134.993
;MINZ:0.2
;MAXX:182.123
;MAXY:187.593
;MAXZ:28.4
;Generated with Cura_SteamEngine 5.3.0
M140 S60
M105
M190 S60
M104 S200
M105
M109 S200
M82 ;absolute extrusion mode
M201 X500.00 Y500.00 Z100.00 E5000.00 ;Setup machine max acceleration
M203 X500.00 Y500.00 Z10.00 E50.00 ;Setup machine max feedrate
M204 P500.00 R1000.00 T500.00 ;Setup Print/Retract/Travel acceleration
M205 X8.00 Y8.00 Z0.40 E5.00 ;Setup Jerk
M220 S100 ;Reset Feedrate
M221 S100 ;Reset Flowrate

G28 ;Home
M420 S1 Z2 ;Enable ABL using saved Mesh and Fade Height

G92 E0 ;Reset Extruder
G1 Z2.0 F3000 ;Move Z Axis up
G1 X10.1 Y20 Z0.28 F5000.0 ;Move to start position
G1 X10.1 Y200.0 Z0.28 F1500.0 E15 ;Draw the first line
G1 X10.4 Y200.0 Z0.28 F5000.0 ;Move to side a little
G1 X10.4 Y20 Z0.28 F1500.0 E30 ;Draw the second line
G92 E0 ;Reset Extruder
G1 Z2.0 F3000 ;Move Z Axis up

G92 E0
G92 E0
G1 F1500 E-6.5
;LAYER_COUNT:143
;LAYER:0
M107
G0 F6000 X119.617 Y136.543 Z0.2
;TYPE:SKIRT
G1 F1500 E0
G1 F1200 X121.489 Y135.431 E0.07242
G1 X123.676 Y134.993 E0.1466
G1 X175.176 Y134.993 E1.8595
G1 X177.072 Y135.459 E1.92444
G1 X179.099 Y136.512 E2.00041
G1 X180.573 Y138.087 E2.07216
G1 X181.685 Y139.959 E2.14458
G1 X182.123 Y142.146 E2.21876
G1 X182.123 Y180.646 E3.49928
G1 X181.657 Y182.542 E3.56422
G1 X180.604 Y184.569 E3.64019
G1 X179.029 Y186.043 E3.71194
G1 X177.157 Y187.155 E3.78435
G1 X174.97 Y187.593 E3.85854
G1 X123.47 Y187.593 E5.57144
G1 X121.574 Y187.127 E5.63637
G1 X119.547 Y186.074 E5.71235
G1 X118.073 Y184.499 E5.78409
G1 X116.961 Y182.627 E5.85651
G1 X116.523 Y180.44 E5.9307
G1 X116.523 Y141.94 E7.21121
G1 X116.989 Y140.044 E7.27615
G1 X118.042 Y138.017 E7.35212
G1 X119.617 Y136.543 E7.42387
G0 F6000 X119.858 Y136.865
G1 F1200 X121.635 Y135.809 E7.49262
G1 X123.714 Y135.393 E7.56314
G1 X175.13 Y135.393 E9.27324
G1 X176.929 Y135.835 E9.33486
G1 X178.854 Y136.835 E9.40701
G1 X180.251 Y138.328 E9.47501
G1 X181.307 Y140.105 E9.54377
G1 X181.723 Y142.184 E9.61428
G1 X181.723 Y180.6 E10.89201
G1 X181.281 Y182.399 E10.95362
G1 X180.281 Y184.324 E11.02577
G1 X178.788 Y185.721 E11.09378
G1 X177.011 Y186.777 E11.16253
G1 X174.932 Y187.193 E11.23305
G1 X123.516 Y187.193 E12.94315
G1 X121.717 Y186.751 E13.00476
G1 X119.792 Y185.751 E13.07691
G1 X118.395 Y184.258 E13.14492
G1 X117.339 Y182.481 E13.21367
G1 X116.923 Y180.402 E13.28419
G1 X116.923 Y141.986 E14.56191
G1 X117.365 Y140.187 E14.62352
G1 X118.365 Y138.262 E14.69567
G1 X119.858 Y136.865 E14.76368
G0 F6000 X120.099 Y137.187
G1 F1200 X121.781 Y136.188 E14.82875
G1 X123.753 Y135.793 E14.89564
G1 X175.083 Y135.793 E16.60288
G1 X176.787 Y136.212 E16.66124
G1 X178.609 Y137.158 E16.72953
G1 X179.929 Y138.569 E16.79379
G1 X180.928 Y140.251 E16.85886
G1 X181.323 Y142.223 E16.92575
G1 X181.323 Y180.553 E18.20061
G1 X180.904 Y182.257 E18.25897
G1 X179.958 Y184.079 E18.32726
G1 X178.547 Y185.399 E18.39152
G1 X176.865 Y186.398 E18.45659
G1 X174.893 Y186.793 E18.52348
G1 X123.563 Y186.793 E20.23072
G1 X121.859 Y186.374 E20.28908
G1 X120.037 Y185.428 E20.35737
G1 X118.717 Y184.017 E20.42163
G1 X117.718 Y182.335 E20.4867
G1 X117.323 Y180.363 E20.55359
G1 X117.323 Y142.033 E21.82845
G1 X117.742 Y140.329 E21.88681
G1 X118.688 Y138.507 E21.9551
G1 X120.099 Y137.187 E22.01936
G0 F6000 X120.34 Y137.509
G1 F1200 X121.927 Y136.566 E22.08076
G1 X123.791 Y136.193 E22.14398
G1 X175.037 Y136.193 E23.84843
G1 X176.644 Y136.588 E23.90347
G1 X178.364 Y137.481 E23.96793
G1 X179.607 Y138.81 E24.02846
G1 X180.55 Y140.397 E24.08985
G1 X180.923 Y142.261 E24.15308
G1 X180.923 Y180.507 E25.42515
G1 X180.528 Y182.114 E25.48019
G1 X179.635 Y183.834 E25.54465
G1 X178.306 Y185.077 E25.60517
G1 X176.719 Y186.02 E25.66657
G1 X174.855 Y186.393 E25.72979
G1 X123.609 Y186.393 E27.43424
G1 X122.002 Y185.998 E27.48928
G1 X120.282 Y185.105 E27.55374
G1 X119.039 Y183.776 E27.61426
G1 X118.096 Y182.189 E27.67566
G1 X117.723 Y180.325 E27.73889
G1 X117.723 Y142.079 E29.01096
G1 X118.118 Y140.472 E29.066
G1 X119.011 Y138.752 E29.13045
G1 X120.34 Y137.509 E29.19098
G0 F6000 X120.581 Y137.831
G1 F1200 X122.073 Y136.944 E29.24871
G1 X123.829 Y136.593 E29.30827
G1 X174.991 Y136.593 E31.00992
G1 X176.501 Y136.964 E31.06164
G1 X178.119 Y137.804 E31.12228
G1 X179.285 Y139.051 E31.17906
G1 X180.172 Y140.543 E31.23679
G1 X180.523 Y142.299 E31.29635
G1 X180.523 Y180.461 E32.56562
G1 X180.152 Y181.971 E32.61734
G1 X179.312 Y183.589 E32.67797
G1 X178.065 Y184.755 E32.73476
G1 X176.573 Y185.642 E32.79249
G1 X174.817 Y185.993 E32.85205
G1 X123.655 Y185.993 E34.5537
G1 X122.145 Y185.622 E34.60542
G1 X120.527 Y184.782 E34.66605
G1 X119.361 Y183.535 E34.72284
G1 X118.474 Y182.043 E34.78057
G1 X118.123 Y180.287 E34.84013
G1 X118.123 Y142.125 E36.1094
G1 X118.494 Y140.615 E36.16112
G1 X119.334 Y138.997 E36.22175
G1 X120.581 Y137.831 E36.27853
G0 F6000 X120.822 Y138.153
G1 F1200 X122.219 Y137.322 E36.3326
G1 X123.867 Y136.993 E36.38849
G1 X174.944 Y136.993 E38.08732
G1 X176.359 Y137.341 E38.13579
G1 X177.874 Y138.127 E38.19255
G1 X178.963 Y139.292 E38.24559
G1 X179.794 Y140.689 E38.29966
G1 X180.123 Y142.337 E38.35555
G1 X180.123 Y180.414 E39.622
G1 X179.775 Y181.829 E39.67046
G1 X178.989 Y183.344 E39.72723
G1 X177.824 Y184.433 E39.78027
G1 X176.427 Y185.264 E39.83433
G1 X174.779 Y185.593 E39.89023
G1 X123.702 Y185.593 E41.58906
G1 X122.287 Y185.245 E41.63752
G1 X120.772 Y184.459 E41.69429
G1 X119.683 Y183.294 E41.74733
G1 X118.852 Y181.897 E41.80139
G1 X118.523 Y180.249 E41.85729
G1 X118.523 Y142.172 E43.12373
G1 X118.871 Y140.757 E43.1722
G1 X119.657 Y139.242 E43.22897
G1 X120.822 Y138.153 E43.28201
G0 F6000 X121.061 Y138.477
G1 F1200 X122.367 Y137.7 E43.33255
G1 X123.905 Y137.393 E43.38471
G1 X174.898 Y137.393 E45.08075
G1 X176.216 Y137.717 E45.12589
G1 X177.629 Y138.45 E45.17883
G1 X178.639 Y139.531 E45.22804
G1 X179.416 Y140.837 E45.27858
G1 X179.723 Y142.375 E45.33075
G1 X179.723 Y180.368 E46.5944
G1 X179.399 Y181.686 E46.63954
G1 X178.666 Y183.099 E46.69248
G1 X177.585 Y184.109 E46.74169
G1 X176.279 Y184.886 E46.79223
G1 X174.741 Y185.193 E46.8444
G1 X123.748 Y185.193 E48.54043
G1 X122.43 Y184.869 E48.58557
G1 X121.017 Y184.136 E48.63852
G1 X120.007 Y183.055 E48.68772
G1 X119.23 Y181.749 E48.73827
G1 X118.923 Y180.211 E48.79043
G1 X118.923 Y142.218 E50.05408
G1 X119.247 Y140.9 E50.09922
G1 X119.98 Y139.487 E50.15217
G1 X121.061 Y138.477 E50.20137
G0 F6000 X121.3 Y138.801
G1 F1200 X122.515 Y138.078 E50.2484
G1 X123.943 Y137.793 E50.29683
G1 X174.852 Y137.793 E51.99007
G1 X176.073 Y138.093 E52.03189
G1 X177.384 Y138.773 E52.08101
G1 X178.315 Y139.77 E52.12638
G1 X179.038 Y140.985 E52.1734
G1 X179.323 Y142.413 E52.22184
G1 X179.323 Y180.322 E53.4827
G1 X179.023 Y181.543 E53.52451
G1 X178.343 Y182.854 E53.57363
G1 X177.346 Y183.785 E53.619
G1 X176.131 Y184.508 E53.66603
G1 X174.703 Y184.793 E53.71446
G1 X123.794 Y184.793 E55.4077
G1 X122.573 Y184.493 E55.44952
G1 X121.262 Y183.813 E55.49864
G1 X120.331 Y182.816 E55.54401
G1 X119.608 Y181.601 E55.59104
G1 X119.323 Y180.173 E55.63947
G1 X119.323 Y142.264 E56.90033
G1 X119.623 Y141.043 E56.94214
G1 X120.303 Y139.732 E56.99127
G1 X121.3 Y138.801 E57.03664
G0 F6000 X121.539 Y139.125
G1 F1200 X122.663 Y138.456 E57.08014
G1 X123.981 Y138.193 E57.12484
G1 X174.806 Y138.193 E58.81529
G1 X175.93 Y138.469 E58.85378
G1 X177.139 Y139.096 E58.89908
G1 X177.991 Y140.009 E58.94062
G1 X178.66 Y141.133 E58.98412
G1 X178.923 Y142.451 E59.02882
G1 X178.923 Y180.276 E60.28689
G1 X178.647 Y181.4 E60.32538
G1 X178.02 Y182.609 E60.37068
G1 X177.107 Y183.461 E60.41221
G1 X175.983 Y184.13 E60.45572
G1 X174.665 Y184.393 E60.50042
G1 X123.84 Y184.393 E62.19087
G1 X122.716 Y184.117 E62.22936
G1 X121.507 Y183.49 E62.27466
G1 X120.655 Y182.577 E62.31619
G1 X119.986 Y181.453 E62.3597
G1 X119.723 Y180.135 E62.4044
G1 X119.723 Y142.31 E63.66246
G1 X119.999 Y141.186 E63.70096
G1 X120.626 Y139.977 E63.74626
G1 X121.539 Y139.125 E63.78779
G0 F6000 X121.781 Y139.447
G1 F1200 X122.811 Y138.834 E63.82766
G1 X124.019 Y138.593 E63.86863
G1 X174.759 Y138.593 E65.55625
G1 X175.788 Y138.846 E65.59149
G1 X176.892 Y139.418 E65.63285
G1 X177.669 Y140.251 E65.67073
G1 X178.282 Y141.281 E65.7106
G1 X178.523 Y142.489 E65.75157
G1 X178.523 Y180.229 E67.00681
G1 X178.27 Y181.258 E67.04205
G1 X177.698 Y182.362 E67.08341
G1 X176.865 Y183.139 E67.12129
G1 X175.835 Y183.752 E67.16116
G1 X174.627 Y183.993 E67.20213
G1 X123.887 Y183.993 E68.88975
G1 X122.858 Y183.74 E68.92499
G1 X121.754 Y183.168 E68.96635
G1 X120.977 Y182.335 E69.00424
G1 X120.364 Y181.305 E69.0441
G1 X120.123 Y180.097 E69.08507
G1 X120.123 Y142.357 E70.34031
G1 X120.376 Y141.328 E70.37555
G1 X120.948 Y140.224 E70.41691
G1 X121.781 Y139.447 E70.4548
G0 F6000 X122.023 Y139.769
G1 F1200 X122.959 Y139.212 E70.49102
G1 X124.057 Y138.993 E70.52826
G1 X174.713 Y138.993 E72.21309
G1 X175.645 Y139.222 E72.24501
G1 X176.645 Y139.74 E72.28246
G1 X177.347 Y140.493 E72.31671
G1 X177.904 Y141.429 E72.35293
G1 X178.123 Y142.527 E72.39017
G1 X178.123 Y180.183 E73.64261
G1 X177.894 Y181.115 E73.67453
G1 X177.376 Y182.115 E73.71199
G1 X176.623 Y182.817 E73.74623
G1 X175.687 Y183.374 E73.78246
G1 X174.589 Y183.593 E73.8197
G1 X123.933 Y183.593 E75.50452
G1 X123.001 Y183.364 E75.53644
G1 X122.001 Y182.846 E75.5739
G1 X121.299 Y182.093 E75.60814
G1 X120.742 Y181.157 E75.64437
G1 X120.523 Y180.059 E75.68161
G1 X120.523 Y142.403 E76.93405
G1 X120.752 Y141.471 E76.96597
G1 X121.27 Y140.471 E77.00343
G1 X122.023 Y139.769 E77.03767
G0 F6000 X122.265 Y140.091
G1 F1200 X123.107 Y139.59 E77.07026
G1 X124.095 Y139.393 E77.10377
G1 X174.667 Y139.393 E78.7858
G1 X175.502 Y139.598 E78.81439
G1 X176.398 Y140.062 E78.84795
G1 X177.025 Y140.735 E78.87855
G1 X177.526 Y141.577 E78.91113
G1 X177.723 Y142.565 E78.94464
G1 X177.723 Y180.137 E80.19429
G1 X177.518 Y180.972 E80.22289
G1 X177.054 Y181.868 E80.25645
G1 X176.381 Y182.495 E80.28704
G1 X175.539 Y182.996 E80.31963
G1 X174.551 Y183.193 E80.35314
G1 X123.979 Y183.193 E82.03517
G1 X123.144 Y182.988 E82.06377
G1 X122.248 Y182.524 E82.09733
G1 X121.621 Y181.851 E82.12792
G1 X121.12 Y181.009 E82.16051
G1 X120.923 Y180.021 E82.19401
G1 X120.923 Y142.449 E83.44366
G1 X121.128 Y141.614 E83.47226
G1 X121.592 Y140.718 E83.50582
G1 X122.265 Y140.091 E83.53641
G0 F6000 X122.507 Y140.413
G1 F1200 X123.255 Y139.968 E83.56536
G1 X124.133 Y139.793 E83.59514
G1 X174.621 Y139.793 E85.27438
G1 X175.359 Y139.974 E85.29965
G1 X176.151 Y140.384 E85.32931
G1 X176.703 Y140.977 E85.35626
G1 X177.148 Y141.725 E85.38521
G1 X177.323 Y142.603 E85.41498
G1 X177.323 Y180.091 E86.66184
G1 X177.142 Y180.829 E86.68711
G1 X176.732 Y181.621 E86.71678
G1 X176.139 Y182.173 E86.74372
G1 X175.391 Y182.618 E86.77267
G1 X174.513 Y182.793 E86.80245
G1 X124.025 Y182.793 E88.48169
G1 X123.287 Y182.612 E88.50696
G1 X122.495 Y182.202 E88.53662
G1 X121.943 Y181.609 E88.56357
G1 X121.498 Y180.861 E88.59252
G1 X121.323 Y179.983 E88.62229
G1 X121.323 Y142.495 E89.86915
G1 X121.504 Y141.757 E89.89442
G1 X121.914 Y140.965 E89.92408
G1 X122.507 Y140.413 E89.95103
G0 F6000 X122.746 Y140.737
G1 F1200 X123.403 Y140.346 E89.97646
G1 X124.171 Y140.193 E90.0025
G1 X174.571 Y140.193 E91.67882
G1 X175.22 Y140.352 E91.70104
G1 X175.906 Y140.707 E91.72673
G1 X176.379 Y141.216 E91.74984
G1 X176.77 Y141.873 E91.77527
G1 X176.923 Y142.641 E91.80132
G1 X176.923 Y180.041 E93.04524
G1 X176.764 Y180.69 E93.06747
G1 X176.409 Y181.376 E93.09316
G1 X175.9 Y181.849 E93.11627
G1 X175.243 Y182.24 E93.1417
G1 X174.475 Y182.393 E93.16774
G1 X124.075 Y182.393 E94.84406
G1 X123.426 Y182.234 E94.86628
G1 X122.74 Y181.879 E94.89197
G1 X122.267 Y181.37 E94.91508
G1 X121.876 Y180.713 E94.94051
G1 X121.723 Y179.945 E94.96656
G1 X121.723 Y142.545 E96.21048
G1 X121.882 Y141.896 E96.23271
G1 X122.237 Y141.21 E96.2584
G1 X122.746 Y140.737 E96.28151
G0 F6000 X122.985 Y141.061
G1 F1200 X123.551 Y140.724 E96.30342
G1 X124.209 Y140.593 E96.32573
G1 X174.521 Y140.593 E97.99912
G1 X175.081 Y140.73 E98.01829
G1 X175.661 Y141.03 E98.04001
G1 X176.055 Y141.455 E98.05929
G1 X176.392 Y142.021 E98.0812
G1 X176.523 Y142.679 E98.10351
G1 X176.523 Y179.991 E99.34451
G1 X176.386 Y180.551 E99.36369
G1 X176.086 Y181.131 E99.38541
G1 X175.661 Y181.525 E99.40468
G1 X175.095 Y181.862 E99.42659
G1 X174.437 Y181.993 E99.44891
G1 X124.125 Y181.993 E101.12229
G1 X123.565 Y181.856 E101.14146
G1 X122.985 Y181.556 E101.16318
G1 X122.591 Y181.131 E101.18246
G1 X122.254 Y180.565 E101.20437
G1 X122.123 Y179.907 E101.22668
G1 X122.123 Y142.595 E102.46769
G1 X122.26 Y142.035 E102.48686
G1 X122.56 Y141.455 E102.50858
G1 X122.985 Y141.061 E102.52785
G0 F6000 X123.224 Y141.385
G1 F1200 X123.699 Y141.102 E102.54624
G1 X124.247 Y140.993 E102.56483
G1 X174.471 Y140.993 E104.23528
G1 X174.942 Y141.108 E104.25141
G1 X175.415 Y141.353 E104.26913
G1 X175.731 Y141.694 E104.28459
G1 X176.014 Y142.169 E104.30298
G1 X176.123 Y142.717 E104.32156
G1 X176.123 Y179.941 E105.55964
G1 X176.008 Y180.412 E105.57577
G1 X175.763 Y180.885 E105.59348
G1 X175.422 Y181.201 E105.60895
G1 X174.947 Y181.484 E105.62734
G1 X174.399 Y181.593 E105.64592
G1 X124.175 Y181.593 E107.31638
G1 X123.704 Y181.478 E107.3325
G1 X123.231 Y181.233 E107.35022
G1 X122.915 Y180.892 E107.36568
G1 X122.632 Y180.417 E107.38407
G1 X122.523 Y179.869 E107.40266
G1 X122.523 Y142.645 E108.64073
G1 X122.638 Y142.174 E108.65686
G1 X122.883 Y141.701 E108.67457
G1 X123.224 Y141.385 E108.69004
G0 F6000 X123.463 Y141.709
G1 F1200 X123.847 Y141.48 E108.70491
G1 X124.285 Y141.393 E108.71976
G1 X174.421 Y141.393 E110.38729
G1 X174.803 Y141.486 E110.40037
G1 X175.169 Y141.676 E110.41408
G1 X175.407 Y141.933 E110.42573
G1 X175.636 Y142.317 E110.4406
G1 X175.723 Y142.755 E110.45545
G1 X175.723 Y179.891 E111.6906
G1 X175.63 Y180.273 E111.70368
G1 X175.44 Y180.639 E111.7174
G1 X175.183 Y180.877 E111.72905
G1 X174.799 Y181.106 E111.74392
G1 X174.361 Y181.193 E111.75877
G1 X124.225 Y181.193 E113.4263
G1 X123.843 Y181.1 E113.43938
G1 X123.477 Y180.91 E113.45309
G1 X123.239 Y180.653 E113.46474
G1 X123.01 Y180.269 E113.47961
G1 X122.923 Y179.831 E113.49446
G1 X122.923 Y142.695 E114.72961
G1 X123.016 Y142.313 E114.74269
G1 X123.206 Y141.947 E114.75641
G1 X123.463 Y141.709 E114.76806
G0 F6000 X123.668 Y142.053
G1 F1200 X123.995 Y141.858 E114.78072
G1 X124.323 Y141.793 E114.79184
G1 X174.372 Y141.793 E116.45648
G1 X174.661 Y141.863 E116.46637
G1 X174.924 Y142 E116.47623
G1 X175.063 Y142.138 E116.48274
G1 X175.258 Y142.465 E116.49541
G1 X175.323 Y142.793 E116.50653
G1 X175.323 Y179.842 E117.73878
G1 X175.253 Y180.131 E117.74867
G1 X175.116 Y180.394 E117.75854
G1 X174.978 Y180.533 E117.76505
G1 X174.651 Y180.728 E117.77771
G1 X174.323 Y180.793 E117.78884
G1 X124.274 Y180.793 E119.45347
G1 X123.985 Y180.723 E119.46336
G1 X123.722 Y180.586 E119.47323
G1 X123.583 Y180.448 E119.47974
G1 X123.388 Y180.121 E119.4924
G1 X123.323 Y179.793 E119.50352
G1 X123.323 Y142.744 E120.73578
G1 X123.393 Y142.455 E120.74567
G1 X123.53 Y142.192 E120.75553
G1 X123.668 Y142.053 E120.76205
G0 F6000 X123.873 Y142.397
G1 F1200 X124.143 Y142.236 E120.7725
G1 X124.323 Y142.193 E120.77866
G1 X174.323 Y142.193 E122.44167
G1 X174.567 Y142.252 E122.45001
G1 X174.719 Y142.343 E122.45591
G1 X174.88 Y142.613 E122.46636
G1 X174.923 Y142.793 E122.47252
G1 X174.923 Y179.793 E123.70314
G1 X174.864 Y180.037 E123.71149
G1 X174.773 Y180.189 E123.71738
G1 X174.503 Y180.35 E123.72784
G1 X174.323 Y180.393 E123.734
G1 X124.323 Y180.393 E125.397
G1 X124.079 Y180.334 E125.40535
G1 X123.927 Y180.243 E125.41124
G1 X123.766 Y179.973 E125.4217
G1 X123.723 Y179.793 E125.42785
G1 X123.723 Y142.793 E126.65848
G1 X123.782 Y142.549 E126.66683
G1 X123.873 Y142.397 E126.67272
G0 F6000 X124.162 Y142.674
G1 F1200 X124.323 Y142.593 E126.67872
G1 X174.323 Y142.593 E128.34172
G1 X174.442 Y142.632 E128.34589
G1 X174.523 Y142.793 E128.35188
G1 X174.523 Y179.793 E129.58251
G1 X174.484 Y179.912 E129.58667
G1 X174.323 Y179.993 E129.59267
G1 X124.323 Y179.993 E131.25567
G1 X124.204 Y179.954 E131.25984
G1 X124.123 Y179.793 E131.26583
